src/assets/luts/agfa_vista_200.cube
TITLE "agfa_vista_200 - Deep Black Smooth"
LUT_3D_SIZE 5
DOMAIN_MIN 0.0 0.0 0.0
DOMAIN_MAX 1.0 1.0 1.0
0.00377733 0.00371281 0.00304628
0.03781893 0.00340915 0.00132349
0.13020371 0.00367300 0.00038979
0.40236432 0.00610597 0.00002184
0.67979147 0.00132832 0.00000000
0.04660627 0.14043823 0.04287608
0.14846823 0.14136095 0.03319893
0.45413546 0.15082998 0.01537046
0.73232720 0.11014540 0.00368798
0.82808301 0.03357653 0.00000000
0.01588238 0.57035691 0.13029970
0.28120232 0.56275398 0.11892904
0.61058402 0.54360402 0.08979124
0.85897750 0.51229602 0.05919680
0.99675941 0.44525406 0.02988166
0.32043731 0.80578685 0.20135473
0.46909454 0.80385029 0.18463139
0.69442016 0.79766899 0.15953852
0.90045911 0.78595614 0.11906282
0.99997902 0.76528025 0.08800683
0.60528636 0.96467793 0.29543871
0.66798198 0.96313095 0.28236639
0.79549491 0.96144170 0.27124605
0.95284885 0.95748532 0.24872743
0.99956340 0.95243484 0.20675422
0.00128239 0.00247183 0.02637031
0.03044689 0.00166261 0.02252355
0.11071484 0.00112682 0.01546946
0.34068683 0.00001443 0.00966265
0.66033629 0.00000000 0.00593959
0.02704204 0.10592836 0.10231897
0.10397560 0.10515726 0.10457128
0.39044129 0.11697016 0.11284263
0.64571503 0.07864348 0.08376888
0.76172687 0.01728465 0.03983542
0.00556237 0.55298173 0.29944396
0.21849108 0.55585742 0.28915331
0.57217139 0.53505993 0.25475901
0.82572252 0.50079852 0.22002502
0.99326003 0.43200752 0.18615621
0.21676475 0.80692607 0.39640838
0.40710741 0.80553019 0.39147788
0.65694731 0.79029316 0.36384898
0.86350697 0.77617568 0.33956742
0.99146342 0.75748664 0.31148610
0.54034770 0.96625501 0.47591600
0.61584961 0.96711141 0.46868896
0.75282466 0.96531171 0.45746180
0.91821194 0.96154475 0.43817553
0.99779588 0.95662451 0.42241669
0.00012658 0.00134565 0.07529257
0.01675481 0.00025430 0.07246378
0.10725108 0.00091541 0.07816908
0.35460041 0.00109420 0.12903931
0.66695138 0.00000000 0.16264657
0.00683004 0.06905605 0.18462651
0.04982225 0.05735992 0.18052127
0.27731102 0.06451826 0.24794111
0.53558047 0.04168996 0.26398206
0.73148245 0.01295949 0.25409295
0.00021829 0.53842980 0.55738574
0.09332235 0.53280914 0.54471540
0.51146364 0.50628722 0.51404440
0.77172852 0.47001803 0.48563978
0.97013718 0.38262787 0.44859827
0.03579327 0.80685699 0.64039391
0.29364827 0.80078286 0.62888652
0.58642083 0.79508036 0.60878801
0.80851835 0.77661788 0.58349961
0.98883092 0.75209087 0.56556767
0.46591973 0.97426105 0.68620664
0.54088843 0.96890897 0.67972952
0.69585478 0.96788919 0.66779643
0.86952287 0.96913958 0.65281206
0.99621189 0.96176350 0.63778651
0.00000000 0.00036499 0.12753286
0.00447720 0.00000107 0.12659831
0.09106877 0.00000370 0.14204533
0.34860479 0.00000000 0.27089871
0.65803344 0.00000000 0.36198115
0.00000348 0.01793233 0.15628030
0.01105177 0.01512670 0.15422808
0.15122438 0.01475896 0.24378723
0.41498580 0.01078984 0.35558312
0.68915839 0.00345005 0.42510480
0.00000000 0.47082418 0.74635434
0.02668050 0.47272334 0.73713702
0.45716888 0.43959349 0.70332861
0.72201854 0.38735482 0.66857970
0.92460203 0.28223422 0.63296127
0.00418553 0.78558582 0.81521368
0.15460445 0.78846294 0.80791265
0.52541107 0.77524680 0.78458434
0.76566005 0.75605375 0.76143408
0.96499044 0.72883898 0.73930508
0.37064430 0.97837847 0.86242920
0.45767152 0.97455615 0.85484362
0.63561159 0.97213858 0.84356576
0.82526541 0.97049248 0.82938117
0.98512387 0.96548873 0.81426936
0.00000000 0.00000000 0.16942330
0.00092350 0.00000000 0.16599162
0.07630609 0.00000000 0.19076128
0.33601030 0.00000000 0.37605519
0.65447116 0.00000000 0.51382828
0.00000000 0.00220412 0.17813306
0.00049813 0.00099111 0.17549693
0.08690887 0.00113604 0.22255638
0.34513853 0.00013786 0.40822063
0.66663698 0.00003797 0.55982475
0.00000000 0.32745562 0.89437243
0.03638675 0.31252273 0.87839702
0.39731774 0.27299806 0.84062994
0.66720855 0.19972661 0.80351406
0.86449397 0.08261795 0.76329114
0.00000000 0.74619341 0.96441257
0.01584187 0.74171561 0.95872325
0.45966250 0.72331285 0.93269581
0.72259408 0.70146716 0.90890616
0.93464816 0.65840155 0.88003230
0.14839235 0.97657901 0.99794853
0.33264580 0.97376919 0.99175251
0.55811286 0.96867329 0.98662508
0.77322578 0.96365637 0.97258312
0.96167237 0.95675129 0.95991027
