src/assets/luts/agfa_vista_200.cube
TITLE "agfa_vista_200 - Deep Black Smooth"
LUT_3D_SIZE 7
DOMAIN_MIN 0.0 0.0 0.0
DOMAIN_MAX 1.0 1.0 1.0
0.00377733 0.00371281 0.00304628
0.02093336 0.00294125 0.00186197
0.05824737 0.00310276 0.00041952
0.13020371 0.00367300 0.00038979
0.31002313 0.00620267 0.00051775
0.49527302 0.00579217 0.00000000
0.67979147 0.00132832 0.00000000
0.01511380 0.03430903 0.01166031
0.03505677 0.03404843 0.00986596
0.11188274 0.04196787 0.00929947
0.25502753 0.04221875 0.00300345
0.42091237 0.03167748 0.00028654
0.56455486 0.01760924 0.00000000
0.70620524 0.00430472 0.00000000
0.03937820 0.32429375 0.08987732
0.12421461 0.32074412 0.08255267
0.34152618 0.31814811 0.06494390
0.55621392 0.29752755 0.04215912
0.74382252 0.26331350 0.01857835
0.88588929 0.21038528 0.00751777
0.99197888 0.13346483 0.00209291
0.01588238 0.57035691 0.13029970
0.15771981 0.56800276 0.12503561
0.39839694 0.55688751 0.11027141
0.61058402 0.54360402 0.08979124
0.78404224 0.52373224 0.06897899
0.92909318 0.49194509 0.04822583
0.99675941 0.44525406 0.02988166
0.19807506 0.73789823 0.16674367
0.31419128 0.73134249 0.16274591
0.48994157 0.73242491 0.14459080
0.66664529 0.72448790 0.12347212
0.81765622 0.71551484 0.10882065
0.95118129 0.69782335 0.09286158
0.99911249 0.67914414 0.07751253
0.43227050 0.86814684 0.23778230
0.48918709 0.86641663 0.22769120
0.59845763 0.86603737 0.21665959
0.72455794 0.86357450 0.20347042
0.85313714 0.85672629 0.17958049
0.97412169 0.84851754 0.15189658
0.99984634 0.83884817 0.11380538
0.60528636 0.96467793 0.29543871
0.63646209 0.96439266 0.28650847
0.70627517 0.96307236 0.27791238
0.79549491 0.96144170 0.27124605
0.90081477 0.95932460 0.25648335
0.99120146 0.95288396 0.23727098
0.99956340 0.95243484 0.20675422
0.00174505 0.00290934 0.01498762
0.01720429 0.00191655 0.01311108
0.05244850 0.00128340 0.00913550
0.11255422 0.00091787 0.00467525
0.26278663 0.00151401 0.00318314
0.45180556 0.00119442 0.00325581
0.66685316 0.00000000 0.00215439
0.00987916 0.02871443 0.02796181
0.02670475 0.02617398 0.02563619
0.09192088 0.03110934 0.02883207
0.21836382 0.03087547 0.02424813
0.38057230 0.02402155 0.01378348
0.52108492 0.01153035 0.00494404
0.67929124 0.00162778 0.00333930
0.03553929 0.30321534 0.15489699
0.09961556 0.30842024 0.15274729
0.31877467 0.30534155 0.14486695
0.53474563 0.28115335 0.11636219
0.72533339 0.24822681 0.08901232
0.87108105 0.19640906 0.05774767
0.98572812 0.11395990 0.02484938
0.00558491 0.56096888 0.22375765
0.11615472 0.56398213 0.21582197
0.37291175 0.55428559 0.20340224
0.59037560 0.53936064 0.17675467
0.76148981 0.51659453 0.16000183
0.90858728 0.48252308 0.13186319
0.99672621 0.43668380 0.10899778
0.12620255 0.73917812 0.28311923
0.26911035 0.73580009 0.28005287
0.46666783 0.72943473 0.27060062
0.64483696 0.72006392 0.24635109
0.79682916 0.70904154 0.22360578
0.93295503 0.69585001 0.20115596
0.99533224 0.67638105 0.17732191
0.37380597 0.86839449 0.34840548
0.45494106 0.86865419 0.34575960
0.57252467 0.86674654 0.33122474
0.70198303 0.86218083 0.31888628
0.82955587 0.85680491 0.30598700
0.95335358 0.85080540 0.28861240
0.99624753 0.84065443 0.26554924
0.56601214 0.96533912 0.39970881
0.61239308 0.96592987 0.39318082
0.67916119 0.96633059 0.38688391
0.77353090 0.96546596 0.37954155
0.87973887 0.95869404 0.36621583
0.97806329 0.95574123 0.35723430
0.99825358 0.95442539 0.33656529
0.00059115 0.00220187 0.03977442
0.01158075 0.00158633 0.03755049
0.04746144 0.00100137 0.03400540
0.11031107 0.00085615 0.03158924
0.25696753 0.00074018 0.03773614
0.44107500 0.00018067 0.03823412
0.65599025 0.00000000 0.03135760
0.00457060 0.02120266 0.05311077
0.01822057 0.02042018 0.05343330
0.07031310 0.02093148 0.06120307
0.18639083 0.02125100 0.07633189
0.34371991 0.01537515 0.08102426
0.49759477 0.00728256 0.07781601
0.67558855 0.00168134 0.07274903
0.02860812 0.27986295 0.28145829
0.07502048 0.28046402 0.28192479
0.27703236 0.28980777 0.28687851
0.50028878 0.26342782 0.26477686
0.69296408 0.22124782 0.23322651
0.83863604 0.16687043 0.20504956
0.95006943 0.09006632 0.17145671
0.00409935 0.55004776 0.38427261
0.04343649 0.55614990 0.37948516
0.31386089 0.54371887 0.36564621
0.55303448 0.53137422 0.34333563
0.73372900 0.50657147 0.32208839
0.87718272 0.47648004 0.30190068
0.99021178 0.42064348 0.27248901
0.03238071 0.73285484 0.44934484
0.17074119 0.73502868 0.44740111
0.40512547 0.72699106 0.43398786
0.60412365 0.71822673 0.41348961
0.76165158 0.70437467 0.39485469
0.89937735 0.68858105 0.37810740
0.99121118 0.67216051 0.36636701
0.29609248 0.87076312 0.50941634
0.38693267 0.87128741 0.50744772
0.52386338 0.86643195 0.49377885
0.65933841 0.86443543 0.48487487
0.79378098 0.85646963 0.47253343
0.92053002 0.84760839 0.45639062
0.99136281 0.83436739 0.44511396
0.51781160 0.97022974 0.55275846
0.55803233 0.97058737 0.55035555
0.63494414 0.97021592 0.54297912
0.73147058 0.96419191 0.53309387
0.84259969 0.96683669 0.52270091
0.95712233 0.96440285 0.51262313
0.99734157 0.95999038 0.50447869
0.00012658 0.00134565 0.07529257
0.00437413 0.00080026 0.07387320
0.03866556 0.00020176 0.07023314
0.10725108 0.00091541 0.07816908
0.26354689 0.00092883 0.11306791
0.45152818 0.00055072 0.14338288
0.66695138 0.00000000 0.16264657
0.00108349 0.01570933 0.08819918
0.00745539 0.01336546 0.08715745
0.05013386 0.01275129 0.09571180
0.15084130 0.01187893 0.12756312
0.31733717 0.01004949 0.16789553
0.48955918 0.00489205 0.19406006
0.67431070 0.00307415 0.21215184
0.01599496 0.23217730 0.40297833
0.05388989 0.22610899 0.40126537
0.21760422 0.23508959 0.43175908
0.45471260 0.21908748 0.42873471
0.65192575 0.18154083 0.40552779
0.79908968 0.12932447 0.37727740
0.88646648 0.06075535 0.33606363
0.00021829 0.53842980 0.55738574
0.00720809 0.53686738 0.55143178
0.24866645 0.52330345 0.53424478
0.51146364 0.50628722 0.51404440
0.69566125 0.48491320 0.49475941
0.84314841 0.44810879 0.47364521
0.97013718 0.38262787 0.44859827
0.00559317 0.72833282 0.61209011
0.05097101 0.72835737 0.61194146
0.33725747 0.72166091 0.59627110
0.55949062 0.71200800 0.57835895
0.72148526 0.70201546 0.56185639
0.86613637 0.68180221 0.54685301
0.98493350 0.65921664 0.53294009
0.19054094 0.87499404 0.66142750
0.31358260 0.87078983 0.65351194
0.47055554 0.86623442 0.64471197
0.61777657 0.86383438 0.63378876
0.75799781 0.85809976 0.61997348
0.89027387 0.84753513 0.60633039
0.99328125 0.83651578 0.59550232
0.46591973 0.97426105 0.68620664
0.50626218 0.96986181 0.68057489
0.59010768 0.97261441 0.68023705
0.69585478 0.96788919 0.66779643
0.81004828 0.97058052 0.65879220
0.92519641 0.96650845 0.64760494
0.99621189 0.96176350 0.63778651
0.00000000 0.00079864 0.11154091
0.00145254 0.00055216 0.11158255
0.02783099 0.00001410 0.10820254
0.09260746 0.00000000 0.12058551
0.24841651 0.00000000 0.18753901
0.45286554 0.00000000 0.25932748
0.65380151 0.00000000 0.30084986
0.00000000 0.00810660 0.12315893
0.00199547 0.00730697 0.12286142
0.03250696 0.00618296 0.12054242
0.11906453 0.00487138 0.16212201
0.27303607 0.00235519 0.22973856
0.47126390 0.00233969 0.29968000
0.67249421 0.00046346 0.34554006
0.00160820 0.14417842 0.41507576
0.02470224 0.13775448 0.41178598
0.14589444 0.14568656 0.46089241
0.36806967 0.13868349 0.50418014
0.56601687 0.11119542 0.50131173
0.69664504 0.06948008 0.47678754
0.78313520 0.02437817 0.43776284
0.00000000 0.49474266 0.69086313
0.00471503 0.50113571 0.68633932
0.19335204 0.48862556 0.67210299
0.47466689 0.46459493 0.64569741
0.65855008 0.43669608 0.62168986
0.81085598 0.39994532 0.60502541
0.94049102 0.32567635 0.57951546
0.00257396 0.70333737 0.73779404
0.00995798 0.71204227 0.73812687
0.26809883 0.71086425 0.72410095
0.51705611 0.70073515 0.70631868
0.68813193 0.68666852 0.68722612
0.83737159 0.66547841 0.67117745
0.96811152 0.63360906 0.65509057
0.07376371 0.87077081 0.78042346
0.20949309 0.86893767 0.77513981
0.40956128 0.86334074 0.76397258
0.57333207 0.85399616 0.75064451
0.72250831 0.84733945 0.73655266
0.86123484 0.84627455 0.72701114
0.97702420 0.83087867 0.71316928
0.40849957 0.97804004 0.80555290
0.44413823 0.97201777 0.79762185
0.54407239 0.97400296 0.79517120
0.65757591 0.97029185 0.78680843
0.78047335 0.96916938 0.77759022
0.89748454 0.96988845 0.76813465
0.99013460 0.96217352 0.75821882
0.00000000 0.00037846 0.14281193
0.00137129 0.00001876 0.14172550
0.01637463 0.00000000 0.13993927
0.08807434 0.00000000 0.16116361
0.24519248 0.00003022 0.25726610
0.44720310 0.00000000 0.35009015
0.66719897 0.00000000 0.41952470
0.00000000 0.00277161 0.15082773
0.00071251 0.00226323 0.14970884
0.01902858 0.00091130 0.14656662
0.09917557 0.00121266 0.18656550
0.26656808 0.00342200 0.29727879
0.46682819 0.00205847 0.38553068
0.66505614 0.00000000 0.44760421
0.00000000 0.05505860 0.29811829
0.00438133 0.04802849 0.27913097
0.06207352 0.04847745 0.31753699
0.23563815 0.05475720 0.42564678
0.40929295 0.03807040 0.46470240
0.54901871 0.01758541 0.47782964
0.70455826 0.00453057 0.50139332
0.00000000 0.44252566 0.80041528
0.00343580 0.44179511 0.79575962
0.15138689 0.42661655 0.77854627
0.43795353 0.39731038 0.75323963
0.63061929 0.36723566 0.72869462
0.77812582 0.31578466 0.70747465
0.90604454 0.22618937 0.68099201
0.00003722 0.68843573 0.85079479
0.00401388 0.68396616 0.84624612
0.19466737 0.68277347 0.83300704
0.48208943 0.67064893 0.81320173
0.66005850 0.65047330 0.79607242
0.81354994 0.62826598 0.77931553
0.94735718 0.59617144 0.76229286
0.01130806 0.85872138 0.88962799
0.08451508 0.85971212 0.88514447
0.34554970 0.85346621 0.87413883
0.53371006 0.84520888 0.86089921
0.69209629 0.83341867 0.84743857
0.83723813 0.82892013 0.83457714
0.95792329 0.81180292 0.81870967
0.31950405 0.97814971 0.91616005
0.38126326 0.97713733 0.91241658
0.49043995 0.97561586 0.90669745
0.61604220 0.97327209 0.89825588
0.74347198 0.96685696 0.88531184
0.87050503 0.96706516 0.87548947
0.97615594 0.96565884 0.86674196
0.00000000 0.00000000 0.16942330
0.00081542 0.00000000 0.16716071
0.00683709 0.00000000 0.16471133
0.07630609 0.00000000 0.19076128
0.23437381 0.00000000 0.31337048
0.44307400 0.00000000 0.43066295
0.65447116 0.00000000 0.51382828
0.00000000 0.00105710 0.17399507
0.00000000 0.00033585 0.17305397
0.00771429 0.00000316 0.17083288
0.07925880 0.00039710 0.20541381
0.23806119 0.00057747 0.33181578
0.44687910 0.00000000 0.45013284
0.66406088 0.00000000 0.54490020
0.00000000 0.00989175 0.18755558
0.00044927 0.00963430 0.18524014
0.01723387 0.00625544 0.18499137
0.11543484 0.00713689 0.27949534
0.28230877 0.00498747 0.39801147
0.47711136 0.00339150 0.50262874
0.67785226 0.00048989 0.58155325
0.00000000 0.32745562 0.89437243
0.00737869 0.31986455 0.88570522
0.12578787 0.30152833 0.86814433
0.39731774 0.27299806 0.84062994
0.58991563 0.22659329 0.81514478
0.73685026 0.16722462 0.79027319
0.86449397 0.08261795 0.76329114
0.00000000 0.63433570 0.94942725
0.00151978 0.63392431 0.94167173
0.11019344 0.63340122 0.92896193
0.43885767 0.61090124 0.90930641
0.62698102 0.59384656 0.88903880
0.78707361 0.56545174 0.87185359
0.92336965 0.50772303 0.84977877
0.00182384 0.83479506 0.97722572
0.00892858 0.83825117 0.97766382
0.24063769 0.83060551 0.96879989
0.48400339 0.82230586 0.95607227
0.65857279 0.81161082 0.94078386
0.80857176 0.79669392 0.92582494
0.94296557 0.77669024 0.90845144
0.14839235 0.97657901 0.99794853
0.25831467 0.97469181 0.99605495
0.40840283 0.97101855 0.98918480
0.55811286 0.96867329 0.98662508
0.70071530 0.96450734 0.97468024
0.83963573 0.96276575 0.96789318
0.96167237 0.95675129 0.95991027
