src/assets/luts/agfa_ultra_color_100.cube
TITLE "agfa_ultra_color_100 - Deep Black Smooth"
LUT_3D_SIZE 13
DOMAIN_MIN 0.0 0.0 0.0
DOMAIN_MAX 1.0 1.0 1.0
0.00489369 0.00548720 0.00415460
0.01177277 0.00387271 0.00386893
0.02125481 0.00310827 0.00438205
0.03097088 0.00239107 0.00469368
0.04269956 0.00093886 0.00363637
0.05559652 0.00059524 0.00260570
0.07314078 0.00093518 0.00314453
0.09543351 0.00028397 0.00356013
0.13673132 0.00000000 0.00301540
0.20337180 0.00000000 0.00250443
0.27921258 0.00000000 0.00212388
0.36780173 0.00000000 0.00213448
0.46219742 0.00000000 0.00275694
0.01142186 0.01777920 0.00628755
0.01795364 0.01534757 0.00599196
0.02621864 0.01326181 0.00629141
0.03661591 0.01104451 0.00602336
0.04821941 0.00694384 0.00511895
0.06159738 0.00355173 0.00428300
0.07908951 0.00326949 0.00398304
0.10456109 0.00106787 0.00323544
0.14690930 0.00000000 0.00276043
0.21377477 0.00000000 0.00288739
0.30000289 0.00000000 0.00203566
0.38285472 0.00000000 0.00346647
0.46865610 0.00000000 0.00633425
0.02832737 0.04532571 0.01367455
0.03340398 0.04049519 0.01248587
0.04158127 0.03623334 0.01160040
0.05679582 0.03265603 0.01191774
0.07282604 0.02839877 0.01168682
0.08447406 0.01839648 0.00881618
0.09816105 0.00936780 0.00596156
0.12476655 0.00372685 0.00431633
0.16841071 0.00068906 0.00310931
0.24115815 0.00029344 0.00347121
0.33297534 0.00091539 0.00474094
0.41050957 0.00002192 0.00785513
0.49270232 0.00000000 0.01046202
0.06939478 0.13533309 0.03694378
0.07830791 0.12864272 0.03631402
0.09596579 0.12078695 0.03465884
0.12485764 0.11042544 0.03261384
0.15649975 0.09918842 0.03030882
0.18955315 0.08064694 0.02775810
0.21641504 0.05800133 0.02188102
0.23698030 0.03365531 0.01310244
0.26689299 0.01684171 0.00839936
0.30797640 0.00587659 0.00599072
0.38377983 0.00351643 0.00916707
0.46137307 0.00137116 0.01436280
0.53815606 0.00008564 0.01596903
0.09638908 0.30533006 0.07553653
0.12595535 0.30744798 0.07521549
0.17133413 0.30166942 0.07157976
0.22516250 0.28552094 0.06803897
0.29039608 0.26481446 0.06445766
0.35782207 0.23537162 0.06416156
0.42607894 0.20379740 0.05799400
0.49893414 0.16256836 0.04241315
0.55176052 0.11488751 0.02839024
0.56980245 0.06986493 0.02075194
0.57374986 0.03778627 0.02168408
0.59342703 0.01748560 0.02467928
0.63771539 0.00644126 0.02874405
0.10030226 0.44696033 0.09531415
0.13918339 0.44839418 0.09323584
0.19745906 0.44442028 0.08800789
0.26031986 0.42673627 0.08394729
0.34037226 0.40181747 0.08033859
0.41996673 0.37509182 0.07939506
0.50541580 0.34627810 0.07504214
0.60318160 0.31110948 0.06168261
0.69861853 0.27313894 0.05327446
0.77984798 0.22780006 0.04815554
0.84786361 0.18344435 0.04845103
0.91065253 0.13989650 0.05438855
0.93592090 0.08834002 0.06530512
0.09735287 0.57775742 0.09724857
0.15122208 0.57507682 0.09775518
0.21541798 0.57210678 0.09525280
0.28688857 0.55826175 0.09180244
0.37787187 0.53370416 0.08744097
0.46343514 0.50846344 0.08473934
0.55600089 0.48333213 0.08121689
0.65451854 0.45514473 0.07228914
0.75008506 0.42201790 0.06931262
0.83353490 0.38328579 0.06886060
0.90139866 0.34702322 0.07263561
0.96160370 0.30833435 0.07994267
0.99059790 0.26176786 0.09560148
0.12241638 0.70334029 0.08386829
0.18300478 0.69428796 0.08372059
0.25637135 0.68613225 0.08220176
0.33416551 0.67728209 0.08254390
0.42069194 0.66232055 0.08268413
0.51224476 0.64141262 0.08045746
0.61130273 0.61591989 0.07857093
0.71144611 0.59138459 0.07514256
0.80304295 0.56000054 0.07592401
0.88280612 0.52534062 0.07906669
0.94845933 0.49446887 0.08529305
0.98683316 0.46148825 0.09692518
0.99668097 0.42854783 0.11562322
0.21578559 0.79865634 0.05278625
0.25996131 0.79263192 0.05335219
0.32074764 0.79001683 0.05487622
0.39920157 0.77809668 0.05710756
0.47930238 0.76624948 0.05964736
0.57189304 0.74392396 0.06099490
0.67114884 0.71917570 0.06067669
0.76430869 0.69570416 0.06408307
0.85023880 0.67332917 0.07295543
0.92448437 0.64914244 0.07949627
0.98067665 0.62391347 0.08755545
0.99423701 0.59104723 0.10476881
0.99843395 0.55932647 0.12319230
0.33023998 0.88075036 0.01595076
0.36296219 0.87953478 0.01433544
0.41469038 0.87543523 0.01705229
0.48547298 0.86059445 0.02466217
0.55925059 0.84760410 0.03000402
0.64241570 0.83203036 0.03063607
0.73378104 0.80798411 0.03634418
0.81686199 0.78660995 0.04338552
0.89417613 0.76563221 0.05152657
0.95961595 0.74458784 0.06161878
0.99150223 0.71963102 0.07262434
0.99745184 0.69214022 0.09129222
0.99995798 0.66831857 0.11841893
0.45081741 0.95076954 0.00383790
0.47949177 0.94873297 0.00344781
0.52438825 0.94302964 0.00407571
0.58019745 0.92902160 0.00895184
0.64820081 0.91683704 0.01084610
0.72227681 0.90637743 0.00713039
0.79802638 0.89027625 0.00891003
0.87157464 0.86871660 0.01796643
0.93761575 0.84888381 0.02462284
0.98727906 0.83112234 0.03371308
0.99644697 0.80693263 0.04516064
0.99970722 0.78168941 0.06330306
1.00000000 0.76064122 0.10388897
0.59214550 0.99464315 0.00041265
0.61326355 0.99584401 0.00022543
0.64703494 0.99154240 0.00037252
0.68881488 0.98561752 0.00114445
0.74311864 0.97639537 0.00189377
0.80674684 0.96544188 0.00143208
0.87090081 0.95088220 0.00172378
0.93074906 0.93705261 0.00386800
0.98068297 0.92273891 0.00540061
0.99520695 0.90334731 0.00868613
0.99921525 0.88766247 0.01130389
1.00000000 0.86877465 0.02193493
1.00000000 0.84976238 0.06475778
0.75683033 0.99985534 0.00000000
0.77193910 1.00000000 0.00000000
0.79160941 0.99976379 0.00000000
0.82277906 0.99854749 0.00000000
0.85956579 0.99775249 0.00000000
0.90870255 0.99643379 0.00000000
0.95665187 0.98712778 0.00000000
0.97814804 0.98213249 0.00000000
0.99619496 0.97538149 0.00005529
0.99896741 0.96221441 0.00128877
1.00000000 0.95032531 0.00242586
1.00000000 0.93253523 0.00555673
1.00000000 0.91943336 0.01927845
0.00375637 0.00428464 0.01159834
0.00934680 0.00296949 0.01107664
0.01719530 0.00307705 0.01020636
0.02761724 0.00277445 0.01007564
0.04013307 0.00112451 0.00965078
0.05490814 0.00055467 0.00876823
0.07223479 0.00059483 0.00662907
0.09302257 0.00023838 0.00521092
0.13164740 0.00000000 0.00612162
0.19627855 0.00000000 0.00803950
0.27130523 0.00000000 0.00755943
0.35472831 0.00000000 0.00641488
0.44315542 0.00000000 0.01000953
0.01001700 0.01588300 0.01476496
0.01594422 0.01348452 0.01427894
0.02394861 0.01195988 0.01370636
0.03450726 0.01059765 0.01292894
0.04615604 0.00626443 0.01169939
0.05961193 0.00254054 0.01024872
0.07721047 0.00226844 0.00881029
0.10175012 0.00076576 0.00790766
0.14322168 0.00000000 0.00751458
0.20997374 0.00000000 0.00768305
0.28979098 0.00000000 0.00666241
0.36640848 0.00000000 0.01052176
0.44585305 0.00000000 0.01767031
0.02498986 0.04106809 0.02371217
0.03068909 0.03740650 0.02261226
0.03965917 0.03362993 0.02154354
0.05404684 0.03087916 0.02090727
0.06869766 0.02587236 0.01941394
0.08074482 0.01714906 0.01670164
0.09810338 0.00963159 0.01391220
0.12242520 0.00349691 0.01206091
0.17350496 0.00216845 0.01119487
0.24032102 0.00056676 0.01013424
0.32209355 0.00035729 0.01244255
0.39769370 0.00000000 0.01806462
0.47269409 0.00000000 0.02643705
0.06389579 0.12676373 0.05472737
0.07493247 0.12311867 0.05401063
0.09389470 0.11710350 0.05256371
0.12139754 0.10774910 0.04995732
0.15145003 0.09646024 0.04687164
0.18347080 0.07842634 0.04211710
0.21057351 0.05593824 0.03451958
0.23022725 0.03187061 0.02637403
0.26022531 0.01539464 0.01949238
0.30272803 0.00538275 0.01801211
0.37345345 0.00228232 0.02256627
0.45124329 0.00067277 0.02808640
0.52702500 0.00000000 0.03663970
0.08653992 0.29568067 0.09898698
0.11431053 0.29885021 0.10033149
0.15666256 0.29306653 0.09925255
0.21473787 0.27912957 0.09503374
0.28050945 0.26045429 0.09082618
0.35101058 0.23379957 0.08647067
0.41880129 0.20006123 0.07774610
0.48858046 0.15995178 0.06714795
0.54169898 0.11421727 0.05472927
0.55339339 0.06637278 0.04505627
0.54897582 0.03199490 0.04216772
0.56515639 0.01215159 0.04242042
0.61904379 0.00461377 0.05318490
0.09564590 0.44229245 0.11602491
0.12467790 0.44290283 0.11592238
0.17856430 0.43661761 0.11244942
0.25056031 0.42373866 0.10923848
0.33404911 0.40188289 0.10604148
0.41600400 0.37644675 0.10250935
0.49837384 0.34743538 0.09725542
0.59145558 0.31110239 0.09201361
0.68673509 0.27174157 0.08534498
0.76809520 0.22381198 0.08007750
0.83900040 0.17604420 0.07898295
0.89721274 0.13056833 0.08462825
0.92159808 0.08726266 0.09940671
0.08595227 0.57995772 0.11471280
0.13146614 0.57512641 0.11604048
0.19592062 0.57133198 0.11346691
0.27860844 0.55668610 0.11251322
0.37069291 0.53218383 0.11035943
0.45954487 0.50920570 0.10817637
0.54780573 0.48244438 0.10456299
0.64388943 0.44952345 0.09963115
0.74056393 0.41614875 0.09698890
0.82028043 0.37700498 0.09736896
0.89204210 0.34152868 0.09911852
0.94843048 0.29968128 0.11032774
0.98853636 0.25857526 0.12674905
0.10234933 0.70497406 0.09844103
0.16497298 0.69758278 0.10180184
0.23523936 0.69178194 0.10076086
0.31956267 0.67982996 0.10328206
0.41077477 0.66092509 0.10329150
0.50492859 0.64017338 0.10200322
0.60297084 0.61423010 0.10210411
0.70241183 0.58579999 0.09852702
0.79491973 0.55725658 0.09810006
0.86903089 0.51973301 0.10456351
0.93761587 0.49209958 0.11242493
0.98219830 0.45853496 0.12596898
0.99697071 0.42498732 0.14269505
0.20223026 0.79704452 0.06407721
0.24775173 0.79191506 0.06956998
0.30791652 0.78761774 0.07266219
0.38637960 0.77684009 0.07211099
0.47255698 0.76294553 0.07416660
0.56479049 0.74383259 0.07833291
0.66200143 0.72045583 0.08532423
0.75525481 0.69483954 0.08746500
0.84078801 0.67278779 0.09133439
0.91046864 0.64747053 0.10159339
0.97246814 0.62336677 0.11277084
0.99514288 0.59207875 0.12811942
0.99944681 0.55868745 0.14584906
0.31893629 0.88277394 0.02117422
0.35235271 0.87883914 0.02450497
0.40442970 0.87108582 0.03181030
0.47039384 0.86156934 0.02730571
0.54847771 0.84969425 0.02950338
0.63683230 0.83118421 0.03839232
0.72705787 0.80841935 0.05062636
0.80636895 0.78627342 0.06203923
0.88268161 0.76500785 0.06898604
0.94570011 0.74349058 0.08286496
0.98939997 0.72134459 0.09680861
0.99850255 0.69545954 0.11716677
1.00000000 0.67180485 0.15286177
0.43903002 0.95195264 0.00813986
0.46715030 0.95026278 0.00628647
0.51227069 0.94390678 0.00728133
0.56561965 0.93236125 0.00725274
0.63561666 0.91992515 0.00758127
0.71183550 0.90755999 0.00964011
0.79031020 0.88998413 0.01530225
0.86103934 0.87063271 0.02630196
0.92772472 0.85108173 0.03385732
0.98031390 0.83022195 0.04848577
0.99558461 0.80879229 0.06656890
0.99957168 0.78617972 0.09824345
1.00000000 0.76536077 0.14366677
0.58142316 0.99376613 0.00289898
0.60359752 0.99357277 0.00233085
0.63838679 0.99116284 0.00104596
0.67931116 0.98474044 0.00178339
0.73583865 0.97736079 0.00366773
0.79948843 0.96696633 0.00327334
0.86102945 0.95210290 0.00469727
0.92142534 0.93840718 0.00719902
0.97491908 0.92279196 0.00725680
0.99669558 0.90683305 0.00942383
0.99958223 0.89000386 0.02202364
1.00000000 0.87242442 0.05105411
1.00000000 0.85325378 0.11868151
0.74980754 0.99914765 0.00015419
0.76366186 0.99929917 0.00026757
0.78340083 0.99933398 0.00000395
0.82047725 0.99773926 0.00029801
0.85750699 0.99902612 0.00064251
0.90247768 0.99498147 0.00042801
0.94623381 0.98986501 0.00002370
0.97417921 0.98573565 0.00028974
0.99526441 0.97489625 0.00122230
0.99945360 0.96385264 0.00266406
1.00000000 0.95082176 0.00442216
1.00000000 0.93571812 0.01154490
1.00000000 0.92235887 0.05435176
0.00303421 0.00399446 0.02102221
0.00729155 0.00272275 0.01981366
0.01500868 0.00264915 0.01935873
0.02464769 0.00261654 0.01816779
0.03717698 0.00111280 0.01683755
0.05180678 0.00021805 0.01562892
0.07027570 0.00005748 0.01328843
0.09157032 0.00004994 0.01117006
0.13031289 0.00000000 0.01176624
0.19161992 0.00000000 0.01466615
0.26394721 0.00000000 0.01780888
0.34765560 0.00000000 0.02066034
0.43417810 0.00000000 0.02950324
0.00838784 0.01418072 0.02428461
0.01356775 0.01204970 0.02330847
0.02120369 0.01052149 0.02240864
0.03184197 0.00977371 0.02142144
0.04405722 0.00610572 0.02010200
0.05712055 0.00198224 0.01841911
0.07552480 0.00099674 0.01657422
0.10120791 0.00060497 0.01556926
0.14395116 0.00021449 0.01578001
0.20920704 0.00007268 0.01684809
0.28368505 0.00000000 0.02081370
0.36230541 0.00000000 0.02795137
0.44031806 0.00000000 0.03925049
0.02155698 0.03688603 0.03431809
0.02641393 0.03415178 0.03272719
0.03564477 0.03105316 0.03169650
0.04886741 0.02785877 0.03100026
0.06106927 0.02129945 0.02845144
0.07252441 0.01322466 0.02509393
0.09391769 0.00760680 0.02305757
0.12033381 0.00259185 0.02109252
0.17587917 0.00255278 0.02316477
0.24460303 0.00166191 0.02524339
0.31909709 0.00060586 0.02958989
0.39439803 0.00000835 0.03802612
0.47044450 0.00000000 0.05062828
0.05799939 0.12227699 0.07516908
0.06644759 0.11546659 0.07262429
0.08607081 0.11036223 0.07162335
0.11376566 0.10298585 0.07054654
0.13934957 0.08900484 0.06629104
0.16842343 0.06992270 0.05989284
0.19518024 0.04820941 0.05112962
0.21538277 0.02662931 0.04166894
0.24991343 0.01307950 0.03690822
0.30130528 0.00580897 0.03756207
0.36498916 0.00139529 0.04150587
0.44851871 0.00123136 0.05246508
0.52643314 0.00075099 0.06677875
0.07990302 0.28866548 0.13060521
0.09819849 0.28665230 0.13051258
0.14001879 0.28129909 0.13053758
0.20039584 0.27186689 0.13008947
0.26685913 0.25546856 0.12680109
0.34150163 0.22998957 0.12078242
0.40827823 0.19415042 0.11213743
0.47421968 0.15252317 0.10219848
0.52045115 0.10563104 0.08951456
0.53397983 0.06191473 0.07715873
0.53331630 0.02917950 0.07096570
0.55592749 0.01231870 0.07626894
0.61212142 0.00500211 0.08975774
0.07816435 0.43721175 0.15164138
0.10658783 0.43490401 0.15053517
0.15914254 0.42902955 0.14895107
0.23540340 0.41818711 0.14614792
0.32279947 0.40225795 0.14232062
0.40945977 0.37723976 0.13899267
0.49112105 0.34423730 0.13471550
0.58259493 0.30459136 0.13121951
0.67593098 0.26408029 0.12604088
0.75638783 0.21795879 0.12281657
0.82543069 0.17112046 0.12585470
0.87434443 0.12327611 0.13645636
0.89260662 0.07681422 0.14666816
0.05395095 0.57789117 0.14965801
0.09737598 0.57314885 0.15119961
0.17221653 0.56593919 0.15094927
0.26381329 0.55284017 0.14594723
0.35867143 0.53450722 0.14342533
0.45142397 0.51244605 0.14431769
0.53964508 0.48040980 0.14325035
0.63389391 0.44387999 0.14200719
0.73126888 0.41141710 0.13756159
0.80845374 0.37344193 0.13961639
0.87671614 0.33517805 0.14548296
0.93001723 0.29300034 0.15867756
0.97745901 0.25408253 0.17584482
0.06950546 0.70679575 0.13832872
0.12376367 0.69877750 0.14324774
0.20595634 0.69144523 0.14536682
0.29977778 0.68088293 0.13922288
0.39747375 0.66311479 0.13950844
0.49600878 0.64176553 0.14119121
0.59412748 0.61080152 0.13889527
0.68834549 0.57898438 0.14015231
0.77822423 0.54897594 0.13907158
0.85278159 0.51905626 0.14573580
0.92343211 0.49396399 0.15559913
0.97634447 0.46186104 0.17015100
0.99430966 0.43218812 0.18446134
0.16389869 0.80084717 0.11695621
0.21174872 0.79510665 0.12194043
0.28279695 0.78782958 0.12805347
0.36917919 0.77861363 0.12263937
0.46025139 0.76296985 0.12391733
0.55504495 0.74427253 0.12522335
0.64982790 0.72330058 0.12154121
0.74169838 0.69817370 0.12564111
0.82451886 0.67291361 0.13125198
0.89037031 0.64455217 0.14314957
0.95725524 0.61970735 0.15718567
0.99397796 0.59503490 0.17783442
0.99764007 0.56921583 0.19346748
0.28884134 0.88356823 0.08817253
0.32553294 0.87835193 0.08778322
0.38428885 0.86994535 0.09178968
0.45244873 0.86404824 0.09097070
0.53575170 0.84988695 0.09144686
0.62529236 0.83145833 0.09378804
0.71258932 0.81130928 0.08942672
0.79124659 0.79048520 0.10166837
0.86676276 0.76821715 0.11140892
0.92939800 0.74505424 0.12939265
0.98366684 0.72338808 0.14927711
0.99660164 0.69738090 0.17968230
0.99964082 0.67256546 0.21450132
0.42064735 0.95396870 0.06953014
0.44976926 0.95030552 0.06725480
0.49436811 0.94266146 0.06273776
0.55179298 0.93629545 0.05476233
0.62494361 0.92132819 0.05740489
0.69888419 0.90652990 0.05876270
0.77587086 0.89106053 0.05065945
0.84640276 0.87411833 0.06765817
0.91439480 0.85557550 0.08149191
0.97070134 0.83419383 0.10759219
0.99490255 0.81278092 0.13446192
0.99794596 0.78979653 0.16967861
0.99991590 0.76747221 0.21069393
0.56912577 0.99124974 0.03359571
0.58710629 0.99029559 0.03657437
0.62292778 0.98881298 0.03406348
0.66698313 0.98801267 0.02785267
0.72290063 0.98072904 0.02896899
0.78502065 0.96873933 0.03021890
0.84658074 0.95563096 0.02959907
0.90653628 0.94012564 0.03397654
0.96263909 0.92629647 0.04255204
0.99405408 0.91129977 0.06387425
0.99961191 0.89340937 0.10123475
0.99988776 0.87501007 0.14463758
1.00000000 0.85513765 0.20022957
0.73738831 0.99890375 0.00538182
0.74853563 0.99830014 0.00699334
0.77397907 0.99819374 0.00902854
0.80614573 0.99890763 0.00860225
0.84297186 0.99929607 0.00678908
0.88778955 0.99674422 0.00692423
0.93194628 0.99404526 0.00845831
0.97030747 0.98917031 0.00727089
0.99221456 0.97963494 0.01209150
0.99963522 0.96962994 0.01794413
1.00000000 0.95759100 0.03544986
1.00000000 0.94271469 0.07215552
1.00000000 0.92747957 0.14731893
0.00296064 0.00375223 0.03204618
0.00603130 0.00283950 0.03012246
0.01184928 0.00231124 0.02871249
0.02235064 0.00197678 0.02831896
0.03478736 0.00144527 0.02683562
0.04948137 0.00077025 0.02515823
0.06799297 0.00016751 0.02317398
0.08974201 0.00000893 0.02201149
0.13118594 0.00010469 0.02406081
0.18825138 0.00001829 0.02892193
0.25810731 0.00000000 0.03620740
0.33979328 0.00000000 0.04466532
0.42066318 0.00000000 0.05846264
0.00703077 0.01296480 0.03524404
0.01093298 0.01099920 0.03320829
0.01767256 0.00888228 0.03190480
0.02884938 0.00708827 0.03151242
0.04093379 0.00467326 0.03028426
0.05479571 0.00224351 0.02864105
0.07366493 0.00116823 0.02687532
0.10077680 0.00085303 0.02721139
0.14800391 0.00109049 0.03116689
0.20902236 0.00081492 0.03667985
0.27827721 0.00006957 0.04265984
0.35552875 0.00000000 0.05263357
0.43429873 0.00000000 0.06651528
0.01791501 0.03387923 0.04586259
0.02168572 0.03142364 0.04362601
0.02943627 0.02762784 0.04244395
0.04106754 0.02348276 0.04171459
0.05348209 0.01801822 0.03926657
0.06725817 0.01152854 0.03603573
0.08888203 0.00610388 0.03429016
0.11779836 0.00220895 0.03411538
0.17184073 0.00186514 0.03936349
0.23897120 0.00171801 0.04626870
0.31436676 0.00125799 0.05436458
0.38786842 0.00000252 0.06549307
0.46638385 0.00000000 0.08064209
0.04993182 0.11637719 0.09943844
0.05718363 0.10632253 0.09408797
0.07440100 0.09985044 0.09447636
0.09748068 0.09218787 0.09451561
0.12356382 0.07957763 0.09010562
0.14879817 0.05933002 0.07907093
0.17604088 0.04046646 0.06960600
0.20013546 0.02214460 0.06086070
0.23535492 0.01035620 0.05705587
0.29446252 0.00605945 0.06323434
0.36081228 0.00232086 0.07070353
0.44160562 0.00161885 0.08478406
0.52092106 0.00162697 0.10258659
0.07247099 0.27655506 0.17069702
0.09011201 0.27146431 0.17041662
0.12466634 0.26630876 0.17453423
0.17768209 0.25423925 0.17649310
0.24391398 0.23850576 0.17437263
0.31879988 0.21634604 0.16539980
0.38852195 0.18251316 0.15567533
0.44956436 0.13831149 0.14239977
0.48585405 0.09133951 0.12656305
0.50499869 0.05611140 0.11833428
0.51814080 0.02871373 0.11201287
0.54985828 0.01370896 0.11763029
0.61382999 0.00886508 0.13367987
0.05442144 0.43064559 0.20232481
0.08328621 0.42694080 0.20227042
0.13260084 0.41872361 0.20440049
0.20910828 0.40571356 0.20390217
0.30287948 0.39238498 0.19927451
0.39223573 0.37288782 0.19242834
0.47890896 0.33903259 0.18893145
0.57070130 0.29830465 0.18549158
0.66217637 0.25585461 0.17977047
0.73770559 0.21108855 0.18131979
0.80566287 0.16701494 0.18742454
0.85099072 0.11901000 0.19708858
0.87314725 0.07777078 0.20489679
0.02484358 0.57027549 0.20849608
0.05769958 0.56710583 0.20890616
0.13846734 0.55822712 0.20982286
0.23521632 0.54511857 0.20841166
0.33732405 0.53107375 0.20445551
0.43370596 0.51112431 0.20038694
0.52635711 0.47928920 0.20161608
0.62026095 0.44218633 0.20258468
0.71337950 0.40422779 0.19669214
0.79026377 0.36874563 0.19815333
0.85587931 0.33018136 0.20671751
0.90897328 0.28931591 0.22150372
0.96199507 0.25020352 0.23927687
0.03222155 0.70323110 0.21028741
0.07356210 0.69702715 0.21339363
0.16595967 0.68761742 0.21320328
0.26729223 0.67728931 0.21233280
0.37433514 0.66131020 0.20856602
0.47735217 0.63890874 0.20439255
0.57870871 0.61035973 0.20550878
0.67229229 0.57926661 0.20835821
0.75892699 0.54839379 0.20730461
0.83554572 0.52015167 0.21114750
0.89882553 0.48918536 0.22219765
0.95486456 0.45639789 0.23742729
0.99183434 0.43004599 0.25281462
0.10732458 0.80322880 0.20760329
0.16081035 0.79601634 0.20724083
0.24069189 0.78587717 0.20621917
0.33632180 0.77749962 0.20754535
0.43400723 0.76299775 0.20677583
0.53233182 0.74344981 0.20486559
0.62779993 0.71935165 0.20246361
0.71940190 0.69462687 0.20372108
0.80152410 0.66962987 0.20743206
0.87010592 0.64066440 0.21716046
0.93438369 0.61544913 0.23224458
0.98576695 0.59450442 0.25216761
0.99601144 0.56866652 0.26873568
0.24618776 0.88372701 0.19935310
0.28543323 0.87502337 0.19643143
0.35188615 0.86859661 0.19511403
0.42438886 0.86323285 0.19530238
0.50840014 0.84879261 0.19368652
0.59687799 0.83223051 0.19151501
0.68283254 0.81057447 0.18869469
0.76501983 0.78845286 0.19491810
0.84211808 0.76408535 0.19940534
0.90852636 0.74246955 0.21467008
0.96923864 0.72294044 0.23575008
0.99311584 0.69847304 0.26284692
0.99797320 0.67111862 0.28908017
0.38492820 0.95172346 0.18756087
0.41755137 0.94818604 0.18544029
0.46867239 0.94125795 0.18314286
0.52683365 0.93542093 0.18028592
0.59849340 0.92177087 0.17770734
0.67191774 0.90776885 0.17655280
0.74593157 0.88999599 0.16972415
0.81568909 0.87218583 0.18171425
0.88599837 0.85175854 0.19251114
0.94700104 0.83002418 0.20526662
0.98706090 0.80994284 0.22635986
0.99523419 0.78986448 0.26141986
0.99880487 0.76798093 0.29906970
0.54409260 0.98375845 0.14654769
0.56404221 0.98390120 0.15015852
0.59920764 0.98320371 0.14952736
0.64290988 0.98558366 0.14415403
0.70061165 0.97710860 0.13972574
0.75752139 0.96973091 0.14422268
0.81772429 0.95481265 0.14239284
0.87733066 0.93877482 0.15105307
0.93648481 0.92708576 0.17299332
0.97575539 0.90977240 0.18718120
0.99515343 0.89122146 0.20780265
0.99810404 0.87266201 0.24332941
0.99993557 0.85711551 0.29355946
0.71618539 0.99773663 0.07493015
0.72983408 0.99833757 0.07373974
0.75149816 0.99801517 0.07436221
0.78461546 0.99862760 0.06992806
0.82357639 0.99755925 0.07112566
0.86584920 0.99576956 0.06745555
0.90970242 0.99283177 0.07357938
0.95312023 0.98875052 0.08375619
0.98220468 0.98050761 0.09773060
0.99627000 0.97332364 0.11983581
0.99977046 0.96102178 0.14967254
1.00000000 0.94527680 0.18725374
1.00000000 0.93117672 0.25334477
0.00173297 0.00317272 0.04269993
0.00325337 0.00221430 0.04108455
0.00896028 0.00173566 0.03980684
0.01849030 0.00163905 0.03904419
0.03154726 0.00118978 0.03790835
0.04833212 0.00101824 0.03702157
0.06555869 0.00042205 0.03522924
0.08726343 0.00002165 0.03494312
0.12922744 0.00019779 0.04070626
0.18642575 0.00007006 0.04993486
0.25302504 0.00000000 0.06109413
0.33037307 0.00000000 0.07534816
0.41831129 0.00000000 0.09223217
0.00462746 0.01202281 0.04638328
0.00751564 0.01014849 0.04482587
0.01408595 0.00783647 0.04389449
0.02444744 0.00570481 0.04311833
0.03665542 0.00375517 0.04153292
0.05149160 0.00217599 0.04020289
0.06973845 0.00123135 0.03872949
0.09761519 0.00089172 0.04088282
0.14619988 0.00114516 0.04859655
0.20767753 0.00116739 0.05918517
0.26961187 0.00022843 0.06944710
0.34266105 0.00000000 0.08234944
0.42257101 0.00000000 0.10017765
0.01194000 0.03195500 0.05925206
0.01654318 0.02926342 0.05718780
0.02328664 0.02494895 0.05455624
0.03275154 0.01984698 0.05227347
0.04558854 0.01518806 0.04984292
0.05989100 0.00920016 0.04699462
0.08147580 0.00461165 0.04651831
0.11254247 0.00176602 0.04894424
0.16627666 0.00126747 0.05765180
0.23211638 0.00153222 0.07025208
0.30280320 0.00165462 0.08384698
0.37345625 0.00019303 0.09620764
0.44871208 0.00000000 0.11463964
0.03659185 0.11283338 0.13068549
0.04538863 0.10092855 0.12282193
0.05863069 0.09013039 0.11778533
0.07796100 0.08068151 0.11521317
0.10453270 0.07112122 0.11132410
0.13021658 0.05241423 0.10052732
0.15889491 0.03528529 0.09128572
0.18449767 0.01907170 0.08221520
