src/assets/luts/agfa_ultra_color_100.cube
TITLE "agfa_ultra_color_100 - Deep Black Smooth"
LUT_3D_SIZE 5
DOMAIN_MIN 0.0 0.0 0.0
DOMAIN_MAX 1.0 1.0 1.0
0.00489369 0.00548720 0.00415460
0.03097088 0.00239107 0.00469368
0.07314078 0.00093518 0.00314453
0.20337180 0.00000000 0.00250443
0.46219742 0.00000000 0.00275694
0.06939478 0.13533309 0.03694378
0.12485764 0.11042544 0.03261384
0.21641504 0.05800133 0.02188102
0.30797640 0.00587659 0.00599072
0.53815606 0.00008564 0.01596903
0.09735287 0.57775742 0.09724857
0.28688857 0.55826175 0.09180244
0.55600089 0.48333213 0.08121689
0.83353490 0.38328579 0.06886060
0.99059790 0.26176786 0.09560148
0.33023998 0.88075036 0.01595076
0.48547298 0.86059445 0.02466217
0.73378104 0.80798411 0.03634418
0.95961595 0.74458784 0.06161878
0.99995798 0.66831857 0.11841893
0.75683033 0.99985534 0.00000000
0.82277906 0.99854749 0.00000000
0.95665187 0.98712778 0.00000000
0.99896741 0.96221441 0.00128877
1.00000000 0.91943336 0.01927845
0.00296064 0.00375223 0.03204618
0.02235064 0.00197678 0.02831896
0.06799297 0.00016751 0.02317398
0.18825138 0.00001829 0.02892193
0.42066318 0.00000000 0.05846264
0.04993182 0.11637719 0.09943844
0.09748068 0.09218787 0.09451561
0.17604088 0.04046646 0.06960600
0.29446252 0.00605945 0.06323434
0.52092106 0.00162697 0.10258659
0.02484358 0.57027549 0.20849608
0.23521632 0.54511857 0.20841166
0.52635711 0.47928920 0.20161608
0.79026377 0.36874563 0.19815333
0.96199507 0.25020352 0.23927687
0.24618776 0.88372701 0.19935310
0.42438886 0.86323285 0.19530238
0.68283254 0.81057447 0.18869469
0.90852636 0.74246955 0.21467008
0.99797320 0.67111862 0.28908017
0.71618539 0.99773663 0.07493015
0.78461546 0.99862760 0.06992806
0.90970242 0.99283177 0.07357938
0.99627000 0.97332364 0.11983581
1.00000000 0.93117672 0.25334477
0.00036591 0.00193596 0.06973628
0.00962207 0.00060530 0.06905353
0.05754117 0.00028663 0.06609738
0.17962946 0.00000000 0.09434669
0.40056972 0.00000000 0.16432859
0.01318301 0.08119190 0.17557172
0.04397470 0.06136277 0.16109493
0.11592926 0.02215708 0.12977562
0.24867261 0.00309347 0.15195711
0.45633944 0.00048834 0.22460177
0.00480641 0.53714293 0.45764843
0.09728140 0.52235615 0.46137059
0.43711942 0.44971091 0.45142084
0.70437920 0.34634408 0.43892682
0.88343996 0.22041573 0.46435755
0.01903456 0.88072962 0.51434171
0.24440545 0.85930347 0.51470518
0.58223420 0.80764127 0.50697428
0.81396413 0.73846120 0.50315112
0.98721403 0.67803562 0.53889233
0.58672559 1.00000000 0.48039171
0.65733570 0.99887407 0.48145166
0.78621888 0.99723989 0.48717323
0.93719280 0.98059314 0.50413603
0.99995798 0.94263738 0.55355632
0.00000000 0.00086568 0.12560130
0.00040565 0.00005934 0.12500522
0.04027991 0.00000000 0.12081634
0.15593610 0.00000000 0.17647351
0.36594606 0.00000000 0.28588153
0.00105074 0.03220321 0.18989286
0.00768857 0.01880008 0.15730016
0.06092257 0.00360701 0.15172963
0.20291785 0.00190995 0.23807655
0.40440707 0.00080932 0.34108840
0.00463731 0.47581273 0.70977086
0.03212392 0.45505059 0.71093655
0.37265390 0.37988791 0.68186861
0.62189424 0.27278328 0.66179913
0.79843986 0.13637489 0.65024292
0.00157154 0.85958046 0.77007091
0.10171249 0.84302509 0.76708478
0.49823123 0.78465152 0.74433261
0.73470145 0.72430158 0.73503363
0.92825794 0.65267205 0.73335403
0.46788797 1.00000000 0.78349090
0.53899008 0.99896598 0.77568913
0.68021834 0.99656540 0.76913738
0.84942019 0.98384911 0.76205742
0.98831534 0.95061338 0.76661736
0.00000000 0.00000000 0.17255242
0.00002275 0.00000000 0.16869354
0.03285302 0.00000000 0.16489655
0.14773246 0.00000000 0.25295361
0.34377645 0.00000000 0.37757869
0.00000000 0.00376871 0.18056537
0.00196299 0.00157960 0.17761204
0.04459142 0.00036996 0.18138499
0.15738042 0.00000000 0.28083704
0.34025995 0.00000000 0.40939503
0.02356395 0.34074348 0.88767463
0.09793683 0.30823261 0.87778550
0.34851509 0.22958802 0.84806201
0.51432240 0.11380325 0.77078387
0.55622273 0.01789136 0.62525143
0.00770982 0.79763931 0.94711292
0.19254705 0.77800578 0.94133258
0.48052824 0.72684598 0.92129385
0.68779367 0.67046136 0.90264094
0.87010747 0.58525342 0.88526398
0.43339366 0.99676591 0.97909546
0.49651375 0.99505782 0.97284931
0.62814450 0.99457794 0.97031891
0.78627253 0.97635591 0.95794463
0.95163155 0.94776732 0.95123279
