src/assets/luts/agfa_vista_200.cube
TITLE "agfa_vista_200 - Deep Black Smooth"
LUT_3D_SIZE 13
DOMAIN_MIN 0.0 0.0 0.0
DOMAIN_MAX 1.0 1.0 1.0
0.00377733 0.00371281 0.00304628
0.00964832 0.00303169 0.00203233
0.02093336 0.00294125 0.00186197
0.03781893 0.00340915 0.00132349
0.05824737 0.00310276 0.00041952
0.08160067 0.00246325 0.00018990
0.13020371 0.00367300 0.00038979
0.22350876 0.00736186 0.00052542
0.31002313 0.00620267 0.00051775
0.40236432 0.00610597 0.00002184
0.49527302 0.00579217 0.00000000
0.58934437 0.00391996 0.00000000
0.67979147 0.00132832 0.00000000
0.00750194 0.01309916 0.00594318
0.01245535 0.01159701 0.00463651
0.02388529 0.01164175 0.00413701
0.03967844 0.01043587 0.00349850
0.06113912 0.00922524 0.00202675
0.09656434 0.00935251 0.00064183
0.15316168 0.00932750 0.00053579
0.23244368 0.00945721 0.00030596
0.31559376 0.00737229 0.00024575
0.40483744 0.00655079 0.00000000
0.50009195 0.00606905 0.00000000
0.59224449 0.00387503 0.00000000
0.68093234 0.00107496 0.00000000
0.01511380 0.03430903 0.01166031
0.02131213 0.03298730 0.01000092
0.03505677 0.03404843 0.00986596
0.06528337 0.03905631 0.01154465
0.11188274 0.04196787 0.00929947
0.17213004 0.04210797 0.00471646
0.25502753 0.04221875 0.00300345
0.33699095 0.03707078 0.00129048
0.42091237 0.03167748 0.00028654
0.49670699 0.02561323 0.00005479
0.56455486 0.01760924 0.00000000
0.63304306 0.00966885 0.00000000
0.70620524 0.00430472 0.00000000
0.04660627 0.14043823 0.04287608
0.05999972 0.13710145 0.03909557
0.08664925 0.13319840 0.03492911
0.14846823 0.14136095 0.03319893
0.23796785 0.15308128 0.03051759
0.34111414 0.15547210 0.02347508
0.45413546 0.15082998 0.01537046
0.56951155 0.14578548 0.00862699
0.66019036 0.12858648 0.00389853
0.73232720 0.11014540 0.00368798
0.79222697 0.09042738 0.00203653
0.83285369 0.06413351 0.00054984
0.82808301 0.03357653 0.00000000
0.03937820 0.32429375 0.08987732
0.05840327 0.32258934 0.08687080
0.12421461 0.32074412 0.08255267
0.23571882 0.32066753 0.07352755
0.34152618 0.31814811 0.06494390
0.44868720 0.30834064 0.05578949
0.55621392 0.29752755 0.04215912
0.65562069 0.28587839 0.02892833
0.74382252 0.26331350 0.01857835
0.81971961 0.24290086 0.01239000
0.88588929 0.21038528 0.00751777
0.95027983 0.17458437 0.00426531
0.99197888 0.13346483 0.00209291
0.01555194 0.46236631 0.11635143
0.04601111 0.45976511 0.11437442
0.13539785 0.45320147 0.10904504
0.25434595 0.44363824 0.09893070
0.36832568 0.43715894 0.08889543
0.47762093 0.42853370 0.07978007
0.58218598 0.42127964 0.06734873
0.67737108 0.41223693 0.05575687
0.76352137 0.39442828 0.04470990
0.84153426 0.37723377 0.03240895
0.90931344 0.34848177 0.02380800
0.96868944 0.31739232 0.01941590
0.99436677 0.28547692 0.01435836
0.01588238 0.57035691 0.13029970
0.05331072 0.57019085 0.12851211
0.15771981 0.56800276 0.12503561
0.28120232 0.56275398 0.11892904
0.39839694 0.55688751 0.11027141
0.50814635 0.54967666 0.10101610
0.61058402 0.54360402 0.08979124
0.70307320 0.53536671 0.07880545
0.78404224 0.52373224 0.06897899
0.85897750 0.51229602 0.05919680
0.92909318 0.49194509 0.04822583
0.98386592 0.47273451 0.03913140
0.99675941 0.44525406 0.02988166
0.07295843 0.66112816 0.14244808
0.13523814 0.65767580 0.14217450
0.23049755 0.65788752 0.13682832
0.33325222 0.65749347 0.13001798
0.43709651 0.65497398 0.12445876
0.54255372 0.64821821 0.11664975
0.63816935 0.63940328 0.10704437
0.72309351 0.63196111 0.09947788
0.80013794 0.62983769 0.09309990
0.87262177 0.62124932 0.08321285
0.94003963 0.60296011 0.07246819
0.98590404 0.58704638 0.06314550
0.99833763 0.57427436 0.05405528
0.19807506 0.73789823 0.16674367
0.25100264 0.73364884 0.16600683
0.31419128 0.73134249 0.16274591
0.39772356 0.73314202 0.15310964
0.48994157 0.73242491 0.14459080
0.58397549 0.73001087 0.13266337
0.66664529 0.72448790 0.12347212
0.74491978 0.71892613 0.11546375
0.81765622 0.71551484 0.10882065
0.88694197 0.70946640 0.09963277
0.95118129 0.69782335 0.09286158
0.98765022 0.68571675 0.08456171
0.99911249 0.67914414 0.07751253
0.32043731 0.80578685 0.20135473
0.34760672 0.80370063 0.19843550
0.40436262 0.80093676 0.19317660
0.46909454 0.80385029 0.18463139
0.54789913 0.80145192 0.17834097
0.62438029 0.80028617 0.16953214
0.69442016 0.79766899 0.15953852
0.76707321 0.79373276 0.14589186
0.83517766 0.78972775 0.13179477
0.90045911 0.78595614 0.11906282
0.96376187 0.78033710 0.10728888
0.99510342 0.77283162 0.09552605
0.99997902 0.76528025 0.08800683
0.43227050 0.86814684 0.23778230
0.44714552 0.87055188 0.23269331
0.48918709 0.86641663 0.22769120
0.54007703 0.86519641 0.22161303
0.59845763 0.86603737 0.21665959
0.66048574 0.86389351 0.21097833
0.72455794 0.86357450 0.20347042
0.78932267 0.86268473 0.19187090
0.85313714 0.85672629 0.17958049
0.91394383 0.85060328 0.16771920
0.97412169 0.84851754 0.15189658
0.99705040 0.84382910 0.13354930
0.99984634 0.83884817 0.11380538
0.52561551 0.92075229 0.27028981
0.53413451 0.92144710 0.26407638
0.56325603 0.91888148 0.26024002
0.60632503 0.91737992 0.25483733
0.64973521 0.91788024 0.24936952
0.70316750 0.91789216 0.24640387
0.76188314 0.91872412 0.24061087
0.81858814 0.91891450 0.23221593
0.87382478 0.91434199 0.22493382
0.93134183 0.91021001 0.21545707
0.98471749 0.90864712 0.20200133
0.99758369 0.90479326 0.18631160
0.99958402 0.89971411 0.16529468
0.60528636 0.96467793 0.29543871
0.61627632 0.96515071 0.28955683
0.63646209 0.96439266 0.28650847
0.66798198 0.96313095 0.28236639
0.70627517 0.96307236 0.27791238
0.74919522 0.96048212 0.27522022
0.79549491 0.96144170 0.27124605
0.84877825 0.96340531 0.26418775
0.90081477 0.95932460 0.25648335
0.95284885 0.95748532 0.24872743
0.99120146 0.95288396 0.23727098
0.99659109 0.94949204 0.22241850
0.99956340 0.95243484 0.20675422
0.00298617 0.00386239 0.00783675
0.00839081 0.00294138 0.00631886
0.01901549 0.00221670 0.00558222
0.03566054 0.00254452 0.00467994
0.05570401 0.00228117 0.00302156
0.07873464 0.00179935 0.00123368
0.12095256 0.00220583 0.00129905
0.19542577 0.00309045 0.00130284
0.28503225 0.00388052 0.00169655
0.38048286 0.00429107 0.00179697
0.47620901 0.00374320 0.00216980
0.57529483 0.00239983 0.00152246
0.67695088 0.00046718 0.00059599
0.00545012 0.01172790 0.01110585
0.01165552 0.01098133 0.01032054
0.02218434 0.01004384 0.00910502
0.03800377 0.00872682 0.00760854
0.05844376 0.00772409 0.00555060
0.09102979 0.00781602 0.00365520
0.14278726 0.00743068 0.00294820
0.21616145 0.00681882 0.00197173
0.30331198 0.00660581 0.00179023
0.39542618 0.00651818 0.00081876
0.49159033 0.00599461 0.00182176
0.58407222 0.00299485 0.00138621
0.67621639 0.00052900 0.00078098
0.01226938 0.02983427 0.01741528
0.01857010 0.02959618 0.01679074
0.03065964 0.02901317 0.01581431
0.05532271 0.03089259 0.01561667
0.09858929 0.03470223 0.01460215
0.15881803 0.03652341 0.01174509
0.23986497 0.03742016 0.01013834
0.32430096 0.03373849 0.00608618
0.40527896 0.02917174 0.00334741
0.47482501 0.02232186 0.00150555
0.54837464 0.01581589 0.00061709
0.62039073 0.00830361 0.00052919
0.69299783 0.00185671 0.00027611
0.04047119 0.12682403 0.05635699
0.05376475 0.12612033 0.05481238
0.07934557 0.12219900 0.05160444
0.13535565 0.13112357 0.05150384
0.22799916 0.14674565 0.05061434
0.32750373 0.14685804 0.04424917
0.43417777 0.14019468 0.03738922
0.55177282 0.13645717 0.02548152
0.64345350 0.12157882 0.01540161
0.71139201 0.10306685 0.01080450
0.77365764 0.08504558 0.00570770
0.79837868 0.05323177 0.00180242
0.80256042 0.02609271 0.00001455
0.03639569 0.31358832 0.11654150
0.05630706 0.31376571 0.11340111
0.11370986 0.31507490 0.10998726
0.22234761 0.31721756 0.10509673
0.33391801 0.31540239 0.09679039
0.44148242 0.30440524 0.08755770
0.54649079 0.29002273 0.07516004
0.64970595 0.27836442 0.05673372
0.73906499 0.25884065 0.04181759
0.81196231 0.23301758 0.02969239
0.88072234 0.20470555 0.01825059
0.94576174 0.17053831 0.00947031
0.99037284 0.12814851 0.00501082
0.00467959 0.45741954 0.14706083
0.03615984 0.45621774 0.14193456
0.11987201 0.44994929 0.13646421
0.24166006 0.44240221 0.12862371
0.36153844 0.43850976 0.12061486
0.47073650 0.43082806 0.11353583
0.57446611 0.41808817 0.10037540
0.67353207 0.40875790 0.08504722
0.76058137 0.39371374 0.07249594
0.83463395 0.37261555 0.05982702
0.90411508 0.34934604 0.04622713
0.96615314 0.31574538 0.03416486
0.99448949 0.27686822 0.02441701
0.01059081 0.56811422 0.16330774
0.04202845 0.56910044 0.15920246
0.14112590 0.56676143 0.15550263
0.26946160 0.56192005 0.14985745
0.39067253 0.55782408 0.14048097
0.50112665 0.55049348 0.13343139
0.60501409 0.54281223 0.12086838
0.69576102 0.53391725 0.11160053
0.77674854 0.52270067 0.10080768
0.85242516 0.51101834 0.09000053
0.92131037 0.48945910 0.07800529
0.98199993 0.46965444 0.06868870
0.99807173 0.43923631 0.05600614
0.05213348 0.66182762 0.18250363
0.11541987 0.65926778 0.18081960
0.20934881 0.65800160 0.17977224
0.31858125 0.65734047 0.17514168
0.43154621 0.65410656 0.16525149
0.53636283 0.64862502 0.15167469
0.63059682 0.64107853 0.14233087
0.71439064 0.63381076 0.13523544
0.79240155 0.62856001 0.12505428
0.86568296 0.62016362 0.11376458
0.93310732 0.60507125 0.10294648
0.98622006 0.58943307 0.09390946
0.99830782 0.57455045 0.08534166
0.16893758 0.73855019 0.21316391
0.22383173 0.73493016 0.21250612
0.29553655 0.73326099 0.21094847
0.38664475 0.73307556 0.20575868
0.48647779 0.73107022 0.19534923
0.57895535 0.72853124 0.18083099
0.65810490 0.72508889 0.17099878
0.73726809 0.72101796 0.16011047
0.81066740 0.71600199 0.14784282
0.88016045 0.70835084 0.13538936
0.94604236 0.70059109 0.12517121
0.99187833 0.69112521 0.11526636
0.99833411 0.67586321 0.10763370
0.29882380 0.80594867 0.24671289
0.33067495 0.80487448 0.24417385
0.38856199 0.80257785 0.24144976
0.45685479 0.80354816 0.23673421
0.53994942 0.80018502 0.22935927
0.61737597 0.79806906 0.22138479
0.68635339 0.79634625 0.21157709
0.75981426 0.79291791 0.20058604
0.82887185 0.78848994 0.18797666
0.89304113 0.78447562 0.17670999
0.95585769 0.78037697 0.16288361
0.99358016 0.77244067 0.14725445
0.99926764 0.76371479 0.13239163
0.41288924 0.87034947 0.28002644
0.43257239 0.87065822 0.27723768
0.47974226 0.86638379 0.27489093
0.52951354 0.86413401 0.27155823
0.58704758 0.86492789 0.26809770
0.65181386 0.86372775 0.26043713
0.71605957 0.86363041 0.25127181
0.78044277 0.86246949 0.24193457
0.84411895 0.85813421 0.23367116
0.90511572 0.85459644 0.22699767
0.96657681 0.85086846 0.21144544
0.99521065 0.84490258 0.19480485
0.99931091 0.84047836 0.17800051
0.50984359 0.92382044 0.30975360
0.52207267 0.92384857 0.30742109
0.55778074 0.91968852 0.30574098
0.59768838 0.91699427 0.30283561
0.63966608 0.91725737 0.29835534
0.69286853 0.91786897 0.29405540
0.75220263 0.91875589 0.28629318
0.80951977 0.91882944 0.27808043
0.86606938 0.91461289 0.27248135
0.92344683 0.91085410 0.26635063
0.97693253 0.90740830 0.25194937
0.99518454 0.90445626 0.23879312
0.99904293 0.90072900 0.22499575
0.59217125 0.96771777 0.33289066
0.60263336 0.96705502 0.33266488
0.62865263 0.96631706 0.32978934
0.65777123 0.96353829 0.32657379
0.69557613 0.96357918 0.32282433
0.73681480 0.96254438 0.32241744
0.78599000 0.96280909 0.31661579
0.84085339 0.96352333 0.30811179
0.89287192 0.95784074 0.30107033
0.94172215 0.95269579 0.29751155
0.98291337 0.94793743 0.28896093
0.99516171 0.94598168 0.27340153
0.99888307 0.95214605 0.26052737
0.00174505 0.00290934 0.01498762
0.00688597 0.00226521 0.01422897
0.01720429 0.00191655 0.01311108
0.03265785 0.00172062 0.01112655
0.05244850 0.00128340 0.00913550
0.07628439 0.00113792 0.00635827
0.11255422 0.00091787 0.00467525
0.17559687 0.00077123 0.00348975
0.26278663 0.00151401 0.00318314
0.35504339 0.00165917 0.00193930
0.45180556 0.00119442 0.00325581
0.55542740 0.00028649 0.00354082
0.66685316 0.00000000 0.00215439
0.00408658 0.01050225 0.01985318
0.00956710 0.00975378 0.01877095
0.02025985 0.00894008 0.01770704
0.03572125 0.00772339 0.01600773
0.05584744 0.00676432 0.01368922
0.08467078 0.00610280 0.01092384
0.13209395 0.00563949 0.00942558
0.19733721 0.00402994 0.00642243
0.28220118 0.00382724 0.00570370
0.37134063 0.00356915 0.00331543
0.46384872 0.00250397 0.00280594
0.56383321 0.00087542 0.00447947
0.66205043 0.00001767 0.00360052
0.00987916 0.02871443 0.02796181
0.01527239 0.02790623 0.02692741
0.02670475 0.02617398 0.02563619
0.05026751 0.02761011 0.02654019
0.09192088 0.03110934 0.02883207
0.14417341 0.03058123 0.02567005
0.21836382 0.03087547 0.02424813
0.30086912 0.02781314 0.01851536
0.38057230 0.02402155 0.01378348
0.44942051 0.01741572 0.00862889
0.52108492 0.01153035 0.00494404
0.59930319 0.00608231 0.00399789
0.67929124 0.00162778 0.00333930
0.03418973 0.11915921 0.07797409
0.04608822 0.11980992 0.07739562
0.07144238 0.11450320 0.07447517
0.12067555 0.11711926 0.07453086
0.20427604 0.12624745 0.07758093
0.30280338 0.12926294 0.07288019
0.41070927 0.12714245 0.06751346
0.52354171 0.12105885 0.05478029
0.61041201 0.10685518 0.04284775
0.67689493 0.08842411 0.03103256
0.72688367 0.06714856 0.01995392
0.75877105 0.04235295 0.01114941
0.77849873 0.02057103 0.00511077
0.03553929 0.30321534 0.15489699
0.04978332 0.30382631 0.15196299
0.09961556 0.30842024 0.15274729
0.20453189 0.30981955 0.15197262
0.31877467 0.30534155 0.14486695
0.42883590 0.29637370 0.13067542
0.53474563 0.28115335 0.11636219
0.63913274 0.26493341 0.09963887
0.72533339 0.24822681 0.08901232
0.80031621 0.22416709 0.07353697
0.87108105 0.19640906 0.05774767
0.93695343 0.16106868 0.04409863
0.98572812 0.11395990 0.02484938
0.00573394 0.44933820 0.19653334
0.02626039 0.45133761 0.19122447
0.10265756 0.44828123 0.18650925
0.22443263 0.44129407 0.18297848
0.34417248 0.43626383 0.17400382
0.45743552 0.42834544 0.16051714
0.56469166 0.41531074 0.14745742
0.66196191 0.40144387 0.13664675
0.74707204 0.38660404 0.12669423
0.82172793 0.36528289 0.11141766
0.89350969 0.34267208 0.09697518
0.95754123 0.30983216 0.08306304
0.99499190 0.27060708 0.06548154
0.00558491 0.56096888 0.22375765
0.02730581 0.56488061 0.21983412
0.11615472 0.56398213 0.21582197
0.24930757 0.55796427 0.21192333
0.37291175 0.55428559 0.20340224
0.48479107 0.54987913 0.18825227
0.59037560 0.53936064 0.17675467
0.67964488 0.52636260 0.17188795
0.76148981 0.51659453 0.16000183
0.83939487 0.50565904 0.14296181
0.90858728 0.48252308 0.13186319
0.97133613 0.45780975 0.12222221
0.99672621 0.43668380 0.10899778
0.01965380 0.66141415 0.25097933
0.07416515 0.66032451 0.24906543
0.18061155 0.65818542 0.24920678
0.29593298 0.65476876 0.24721076
0.41212690 0.64924413 0.23894197
0.51974237 0.64381069 0.22354823
0.61657190 0.63920134 0.20869815
0.69926411 0.63131773 0.20073244
0.77793568 0.62493002 0.18972735
0.85259819 0.61793280 0.17272627
0.92075902 0.60434300 0.16381006
0.98169136 0.59078801 0.15344673
0.99617589 0.57174468 0.14558266
0.12620255 0.73917812 0.28311923
0.18434143 0.73670477 0.28081658
0.26911035 0.73580009 0.28005287
0.36404160 0.73325759 0.28025723
0.46666783 0.72943473 0.27060062
0.56000811 0.72467053 0.25677988
0.64483696 0.72006392 0.24635109
0.72388941 0.71583807 0.23636431
0.79682916 0.70904154 0.22360578
0.86651784 0.70311809 0.21207468
0.93295503 0.69585001 0.20115596
0.98443604 0.68729180 0.18917300
0.99533224 0.67638105 0.17732191
0.25926226 0.80634850 0.31808892
0.29894179 0.80473351 0.31550050
0.36000624 0.80378896 0.31448224
0.43263400 0.80316186 0.31371254
0.52210355 0.79902023 0.30116954
0.60307711 0.79447252 0.28990173
0.67450565 0.79247701 0.28238168
0.74646604 0.78855795 0.27410722
0.81382102 0.78363872 0.26393554
0.87935650 0.77918828 0.25537351
0.94194210 0.77352196 0.24589762
0.98690784 0.76698804 0.23241290
0.99522263 0.76153278 0.21651866
0.37380597 0.86839449 0.34840548
0.40471628 0.87117988 0.34838155
0.45494106 0.86865419 0.34575960
0.50851500 0.86723220 0.34028533
0.57252467 0.86674654 0.33122474
0.63868409 0.86285985 0.32502517
0.70198303 0.86218083 0.31888628
0.76571035 0.86014068 0.31353778
0.82955587 0.85680491 0.30598700
0.89306235 0.85550839 0.29804289
0.95335358 0.85080540 0.28861240
0.99300092 0.84514010 0.27593684
0.99624753 0.84065443 0.26554924
0.47903618 0.92263991 0.37612477
0.50027382 0.92373472 0.37342745
0.53920358 0.92082322 0.37066776
0.58070928 0.91913611 0.36637178
0.62467933 0.91926426 0.36062652
0.67778736 0.91828412 0.35633180
0.73678648 0.91896784 0.35141870
0.79336464 0.91926122 0.34722781
0.85302091 0.91592157 0.33968452
0.91185468 0.91383642 0.33249608
0.96504271 0.91093314 0.32588461
0.99511242 0.90781766 0.31518745
0.99699992 0.90377140 0.30690849
0.56601214 0.96533912 0.39970881
0.58568549 0.96742064 0.39584711
0.61239308 0.96592987 0.39318082
0.64038712 0.96530509 0.39027631
0.67916119 0.96633059 0.38688391
0.72303754 0.96652991 0.38418931
0.77353090 0.96546596 0.37954155
0.82565570 0.96358788 0.37504375
0.87973887 0.95869404 0.36621583
0.93011713 0.95539498 0.36126047
0.97806329 0.95574123 0.35723430
0.99547601 0.95369506 0.34739113
0.99825358 0.95442539 0.33656529
0.00128239 0.00247183 0.02637031
0.00519934 0.00185965 0.02522080
0.01503035 0.00186560 0.02457231
0.03044689 0.00166261 0.02252355
0.05038031 0.00114952 0.01945724
0.07439230 0.00122841 0.01662594
0.11071484 0.00112682 0.01546946
0.17313309 0.00077271 0.01433382
0.25187437 0.00009199 0.01176828
0.34068683 0.00001443 0.00966265
0.43860637 0.00000000 0.00933305
0.54503203 0.00000000 0.00959355
0.66033629 0.00000000 0.00593959
0.00270145 0.00926500 0.03116211
0.00718829 0.00842551 0.03045859
0.01731084 0.00815703 0.02993611
0.03283886 0.00705393 0.02841939
0.05314996 0.00576739 0.02530415
0.08154471 0.00539200 0.02401880
0.12800036 0.00478001 0.02418301
0.19493548 0.00373150 0.02301267
0.27173565 0.00219466 0.02138370
0.35474792 0.00136279 0.01885638
0.44472948 0.00014478 0.01530505
0.54945677 0.00000000 0.01465622
0.65592672 0.00000000 0.00960610
0.00707304 0.02507139 0.03879110
0.01227954 0.02535415 0.03932058
0.02277344 0.02382693 0.03896920
0.04531615 0.02584178 0.04233027
0.08291636 0.02701000 0.04530708
0.13194301 0.02591080 0.04577146
0.20312240 0.02606499 0.04713113
0.28142258 0.02287399 0.04408461
0.36631710 0.02154852 0.04419717
0.44006734 0.01648226 0.03881613
0.50748479 0.00955243 0.03053622
0.57799594 0.00309764 0.02422025
0.66602391 0.00061521 0.01963264
0.02704204 0.10592836 0.10231897
0.03910503 0.10866100 0.10479662
0.06147400 0.10405444 0.10309282
0.10397560 0.10515726 0.10457128
0.18494589 0.11359097 0.11256417
0.28353898 0.11888683 0.11639991
0.39044129 0.11697016 0.11284263
0.49290464 0.10671215 0.10347894
0.57312605 0.09295601 0.09561003
0.64571503 0.07864348 0.08376888
0.69753591 0.05755844 0.06794595
0.73281764 0.03559264 0.05420057
0.76172687 0.01728465 0.03983542
0.03414285 0.29212483 0.21171769
0.04318512 0.29561558 0.21237271
0.08290781 0.29673673 0.21380701
0.18192251 0.30049421 0.21407833
0.30251771 0.29730386 0.20695553
0.41312596 0.28888783 0.19645488
0.52031404 0.27511907 0.18233187
0.62326878 0.25361490 0.16803752
0.70874310 0.23320866 0.15622538
0.78616381 0.20924805 0.14017268
0.85787356 0.18287450 0.12360838
0.92298228 0.14708823 0.10830781
0.96998966 0.10258903 0.08702139
0.00492584 0.44031194 0.26644808
0.01200253 0.44493642 0.26412868
0.07489809 0.44334018 0.26019228
0.19741872 0.43890136 0.25270966
0.32452020 0.43175891 0.24500433
0.43834755 0.42297250 0.23362672
0.54680300 0.40891126 0.21768065
0.64629877 0.39180273 0.20783463
0.73212153 0.37657785 0.19801636
0.80856323 0.35669985 0.18234642
0.87995768 0.33371246 0.16656937
0.94410205 0.29977527 0.15337007
0.98789704 0.26017529 0.13722990
0.00556237 0.55298173 0.29944396
0.01087075 0.55996472 0.29846537
0.08076378 0.56143510 0.29398337
0.21849108 0.55585742 0.28915331
0.34597564 0.54829097 0.28104562
0.46271262 0.54166782 0.26976043
0.57217139 0.53505993 0.25475901
0.66770196 0.52427500 0.24493438
0.75038296 0.51293647 0.23420630
0.82572252 0.50079852 0.22002502
0.89531934 0.47976506 0.21003686
0.96026355 0.45533979 0.19956480
0.99326003 0.43200752 0.18615621
0.00992357 0.65360171 0.33168197
0.03209643 0.65739334 0.33081421
0.13385700 0.65688127 0.32879809
0.26312819 0.65333945 0.32649705
0.37971815 0.64715534 0.31846496
0.49563852 0.64188093 0.30497834
0.59784770 0.63643622 0.29136705
0.68538243 0.62982088 0.28182927
0.76549673 0.62285542 0.27134833
0.83723927 0.61195678 0.25941947
0.90628314 0.59838259 0.24935172
0.97150218 0.58783704 0.23859468
0.99521047 0.57117838 0.22933243
0.07899055 0.73717326 0.36329108
0.13179171 0.73697734 0.36297303
0.22921437 0.73705482 0.36202839
0.33580521 0.73372442 0.36045399
0.43883821 0.72823161 0.35119224
0.53667164 0.72245270 0.33885360
0.62701458 0.71837395 0.32858256
0.70774382 0.71409971 0.31902328
0.78076857 0.70462012 0.30784625
0.85081130 0.70092142 0.29933837
0.91615248 0.69043392 0.28907785
0.97420430 0.68001449 0.27883834
0.99318826 0.67458004 0.26946378
0.21676475 0.80692607 0.39640838
0.25714350 0.80603456 0.39812729
0.33023989 0.80713832 0.39670524
0.40710741 0.80553019 0.39147788
0.49118412 0.80047899 0.38174245
0.57721049 0.79352260 0.37119845
0.65694731 0.79029316 0.36384898
0.72731030 0.78585511 0.35699332
0.79645783 0.78090715 0.34690702
0.86350697 0.77617568 0.33956742
0.92536837 0.76953363 0.33168486
0.97702670 0.76054984 0.32190284
0.99146342 0.75748664 0.31148610
0.33242881 0.86671931 0.42799252
0.36993623 0.87128776 0.42993566
0.42096689 0.86992472 0.42749432
0.47950542 0.86658710 0.42067811
0.54736477 0.86515772 0.41160110
0.61656040 0.86309636 0.40495434
0.68087316 0.86120939 0.40127438
0.74631381 0.85797620 0.39610392
0.81105942 0.85486704 0.38841408
0.87580556 0.85284269 0.38044447
0.93627977 0.84734464 0.37389752
0.98279285 0.84044439 0.36414447
0.99252915 0.83737338 0.35666630
0.44533345 0.92206132 0.45443967
0.46795735 0.92285991 0.45371220
0.50620961 0.92168206 0.45122480
0.55131620 0.92038625 0.44623217
0.60371649 0.92002207 0.43921667
0.65919793 0.91969049 0.43478975
0.71466744 0.92023379 0.43340528
0.77235270 0.92025304 0.43034205
0.83323723 0.91676319 0.42150986
0.89598411 0.91369164 0.41196340
0.95071441 0.91136593 0.40894386
0.98831570 0.90862590 0.40175614
0.99471277 0.90440834 0.39549744
0.54034770 0.96625501 0.47591600
0.55881816 0.96784103 0.47286496
0.58646274 0.96790302 0.47135758
0.61584961 0.96711141 0.46868896
0.65707314 0.96760362 0.46386567
0.70309234 0.96651083 0.46023268
0.75282466 0.96531171 0.45746180
0.80677235 0.96603346 0.45311499
0.86313200 0.96290475 0.44457960
0.91821194 0.96154475 0.43817553
0.97016323 0.96164882 0.43479997
0.99411237 0.95938975 0.43030259
0.99779588 0.95662451 0.42241669
0.00059115 0.00220187 0.03977442
0.00341804 0.00189119 0.03881770
0.01158075 0.00158633 0.03755049
0.02668739 0.00128727 0.03592776
0.04746144 0.00100137 0.03400540
0.07201105 0.00097716 0.03155964
0.11031107 0.00085615 0.03158924
0.17436771 0.00062543 0.03471693
0.25696753 0.00074018 0.03773614
0.34646889 0.00075388 0.03982662
0.44107500 0.00018067 0.03823412
0.54367085 0.00000000 0.03655235
0.65599025 0.00000000 0.03135760
0.00153000 0.00830406 0.04591112
0.00463675 0.00742593 0.04511100
0.01319007 0.00665813 0.04394434
0.02895806 0.00563518 0.04273751
0.04971563 0.00474600 0.04031230
0.07781553 0.00421492 0.03967546
0.12466522 0.00360994 0.04315321
0.19103309 0.00239920 0.04703484
0.27535195 0.00247638 0.05266331
0.36466317 0.00263760 0.05483315
0.45632692 0.00173323 0.05456248
0.55147804 0.00008150 0.05268247
0.65680102 0.00000000 0.04974042
0.00457060 0.02120266 0.05311077
0.00932482 0.02096213 0.05323211
0.01822057 0.02042018 0.05343330
0.03665569 0.02030900 0.05601321
0.07031310 0.02093148 0.06120307
0.11884409 0.02127494 0.06830529
0.18639083 0.02125100 0.07633189
0.26380121 0.01820948 0.07867471
0.34371991 0.01537515 0.08102426
0.42290368 0.01211400 0.08038605
0.49759477 0.00728256 0.07781601
0.57622701 0.00241583 0.07512647
0.67558855 0.00168134 0.07274903
0.01831574 0.09159012 0.13126582
0.02863654 0.09241445 0.13323417
0.04687545 0.09153787 0.13383657
0.08971021 0.09875883 0.14472870
0.16390531 0.10216085 0.15381294
0.25938422 0.10696955 0.16638778
0.36382916 0.10550023 0.17065257
0.46183102 0.09365480 0.16338171
0.54254959 0.07991239 0.15494403
