src/assets/luts/agfa_ultra_color_100.cube
TITLE "agfa_ultra_color_100 - Deep Black Smooth"
LUT_3D_SIZE 7
DOMAIN_MIN 0.0 0.0 0.0
DOMAIN_MAX 1.0 1.0 1.0
0.00489369 0.00548720 0.00415460
0.02125481 0.00310827 0.00438205
0.04269956 0.00093886 0.00363637
0.07314078 0.00093518 0.00314453
0.13673132 0.00000000 0.00301540
0.27921258 0.00000000 0.00212388
0.46219742 0.00000000 0.00275694
0.02832737 0.04532571 0.01367455
0.04158127 0.03623334 0.01160040
0.07282604 0.02839877 0.01168682
0.09816105 0.00936780 0.00596156
0.16841071 0.00068906 0.00310931
0.33297534 0.00091539 0.00474094
0.49270232 0.00000000 0.01046202
0.09638908 0.30533006 0.07553653
0.17133413 0.30166942 0.07157976
0.29039608 0.26481446 0.06445766
0.42607894 0.20379740 0.05799400
0.55176052 0.11488751 0.02839024
0.57374986 0.03778627 0.02168408
0.63771539 0.00644126 0.02874405
0.09735287 0.57775742 0.09724857
0.21541798 0.57210678 0.09525280
0.37787187 0.53370416 0.08744097
0.55600089 0.48333213 0.08121689
0.75008506 0.42201790 0.06931262
0.90139866 0.34702322 0.07263561
0.99059790 0.26176786 0.09560148
0.21578559 0.79865634 0.05278625
0.32074764 0.79001683 0.05487622
0.47930238 0.76624948 0.05964736
0.67114884 0.71917570 0.06067669
0.85023880 0.67332917 0.07295543
0.98067665 0.62391347 0.08755545
0.99843395 0.55932647 0.12319230
0.45081741 0.95076954 0.00383790
0.52438825 0.94302964 0.00407571
0.64820081 0.91683704 0.01084610
0.79802638 0.89027625 0.00891003
0.93761575 0.84888381 0.02462284
0.99644697 0.80693263 0.04516064
1.00000000 0.76064122 0.10388897
0.75683033 0.99985534 0.00000000
0.79160941 0.99976379 0.00000000
0.85956579 0.99775249 0.00000000
0.95665187 0.98712778 0.00000000
0.99619496 0.97538149 0.00005529
1.00000000 0.95032531 0.00242586
1.00000000 0.91943336 0.01927845
0.00303421 0.00399446 0.02102221
0.01500868 0.00264915 0.01935873
0.03717698 0.00111280 0.01683755
0.07027570 0.00005748 0.01328843
0.13031289 0.00000000 0.01176624
0.26394721 0.00000000 0.01780888
0.43417810 0.00000000 0.02950324
0.02155698 0.03688603 0.03431809
0.03564477 0.03105316 0.03169650
0.06106927 0.02129945 0.02845144
0.09391769 0.00760680 0.02305757
0.17587917 0.00255278 0.02316477
0.31909709 0.00060586 0.02958989
0.47044450 0.00000000 0.05062828
0.07990302 0.28866548 0.13060521
0.14001879 0.28129909 0.13053758
0.26685913 0.25546856 0.12680109
0.40827823 0.19415042 0.11213743
0.52045115 0.10563104 0.08951456
0.53331630 0.02917950 0.07096570
0.61212142 0.00500211 0.08975774
0.05395095 0.57789117 0.14965801
0.17221653 0.56593919 0.15094927
0.35867143 0.53450722 0.14342533
0.53964508 0.48040980 0.14325035
0.73126888 0.41141710 0.13756159
0.87671614 0.33517805 0.14548296
0.97745901 0.25408253 0.17584482
0.16389869 0.80084717 0.11695621
0.28279695 0.78782958 0.12805347
0.46025139 0.76296985 0.12391733
0.64982790 0.72330058 0.12154121
0.82451886 0.67291361 0.13125198
0.95725524 0.61970735 0.15718567
0.99764007 0.56921583 0.19346748
0.42064735 0.95396870 0.06953014
0.49436811 0.94266146 0.06273776
0.62494361 0.92132819 0.05740489
0.77587086 0.89106053 0.05065945
0.91439480 0.85557550 0.08149191
0.99490255 0.81278092 0.13446192
0.99991590 0.76747221 0.21069393
0.73738831 0.99890375 0.00538182
0.77397907 0.99819374 0.00902854
0.84297186 0.99929607 0.00678908
0.93194628 0.99404526 0.00845831
0.99221456 0.97963494 0.01209150
1.00000000 0.95759100 0.03544986
1.00000000 0.92747957 0.14731893
0.00173297 0.00317272 0.04269993
0.00896028 0.00173566 0.03980684
0.03154726 0.00118978 0.03790835
0.06555869 0.00042205 0.03522924
0.12922744 0.00019779 0.04070626
0.25302504 0.00000000 0.06109413
0.41831129 0.00000000 0.09223217
0.01194000 0.03195500 0.05925206
0.02328664 0.02494895 0.05455624
0.04558854 0.01518806 0.04984292
0.08147580 0.00461165 0.04651831
0.16627666 0.00126747 0.05765180
0.30280320 0.00165462 0.08384698
0.44871208 0.00000000 0.11463964
0.05941373 0.26393244 0.22273854
0.09859196 0.25203103 0.22349621
0.21439208 0.21785650 0.21788119
0.35962176 0.16755471 0.20534139
0.45113548 0.08100556 0.16966294
0.47926631 0.02134271 0.14840610
0.58534023 0.00621668 0.17328920
0.01295697 0.56238723 0.28331292
0.09355331 0.55361736 0.28355387
0.30205604 0.52545995 0.28201947
0.50538498 0.47592005 0.27473247
0.68921989 0.40169677 0.27109179
0.83108622 0.32436442 0.28033939
0.93972570 0.24120022 0.30802402
0.04103836 0.80146176 0.30366388
0.18346210 0.78546643 0.30030143
0.39829221 0.76061887 0.29784200
0.60036260 0.71182895 0.29552868
0.77737409 0.66865182 0.29719245
0.90916032 0.61432046 0.31966364
0.99261922 0.56087929 0.35547361
0.32395059 0.95251846 0.30422482
0.41688871 0.94117045 0.29863915
0.55897713 0.92155522 0.29432520
0.71432334 0.89188474 0.29367882
0.85224426 0.84667993 0.29809067
0.97122502 0.81042945 0.33123258
0.99799657 0.77014965 0.38658193
0.67961568 0.99827766 0.21381561
0.71453565 0.99782819 0.20939761
0.78624809 0.99785721 0.21256368
0.87363189 0.99572402 0.22070241
0.96335590 0.98200309 0.23981692
0.99823922 0.96469837 0.28129318
1.00000000 0.93190497 0.36575755
0.00036591 0.00193596 0.06973628
0.00428489 0.00108324 0.07027710
0.02139440 0.00044084 0.06723181
0.05754117 0.00028663 0.06609738
0.12362570 0.00000000 0.07879516
0.24420447 0.00000000 0.11362634
0.40056972 0.00000000 0.16432859
0.00304099 0.02389316 0.08608195
0.00973947 0.01764124 0.08075710
0.03110558 0.00892896 0.07727601
0.06687060 0.00204755 0.07719154
0.15129844 0.00145328 0.10448414
0.27710364 0.00109352 0.14812739
0.41467448 0.00000000 0.19355456
0.02844442 0.22871791 0.33877622
0.06620943 0.21486188 0.33747642
0.14754731 0.18427548 0.32940288
0.27300080 0.12192597 0.29586271
0.35053447 0.05002385 0.24688563
0.41751958 0.01496170 0.23628035
0.53197914 0.00494726 0.27013746
0.00480641 0.53714293 0.45764843
0.01980733 0.53185844 0.46000618
0.22178482 0.50436133 0.45872334
0.43711942 0.44971091 0.45142084
0.62751949 0.38353011 0.44043186
0.76867974 0.30213943 0.44380125
0.88343996 0.22041573 0.46435755
0.00442868 0.78245276 0.49405631
0.03312427 0.78369218 0.50237930
0.28810894 0.75377691 0.49960527
0.53252614 0.70985323 0.49719515
0.70950162 0.66313571 0.48915985
0.84800088 0.61044085 0.49896130
0.96545434 0.55135727 0.51874954
0.14928406 0.95430321 0.52462101
0.27442101 0.94588006 0.52210981
0.46770692 0.92569542 0.51846278
0.63456398 0.89053702 0.51174432
0.78074938 0.85494304 0.51618147
0.90975225 0.81550413 0.52578747
0.99365151 0.77938592 0.55517799
0.58672559 1.00000000 0.48039171
0.62520415 0.99995333 0.48418802
0.69862646 0.99787867 0.48145738
0.78621888 0.99723989 0.48717323
0.88532668 0.99099779 0.49791801
0.97215182 0.96935982 0.51292664
0.99995798 0.94263738 0.55355632
0.00000000 0.00102062 0.10587186
0.00044117 0.00068875 0.10473009
0.01061590 0.00000000 0.10513775
0.04622730 0.00000000 0.10291160
0.11104919 0.00000000 0.12664279
0.22298796 0.00000000 0.17650135
0.37491134 0.00000000 0.24501103
0.00056408 0.01344309 0.11589936
0.00349707 0.01047512 0.11562113
0.01735005 0.00368617 0.11484109
0.05417303 0.00092385 0.11430572
0.13399388 0.00150713 0.15664670
0.24797119 0.00061689 0.21299213
0.38533907 0.00000000 0.27244660
0.01141267 0.17463357 0.43096379
0.03223440 0.15127722 0.40403198
0.08835833 0.11492305 0.37228745
0.18072727 0.06803638 0.33065624
0.25038135 0.02241119 0.28215506
0.34032749 0.00526550 0.29316348
0.47836829 0.00233639 0.34922468
0.00259153 0.50607848 0.64137489
0.01396478 0.48943740 0.64011902
0.13999775 0.46298516 0.63257468
0.38537943 0.40327746 0.61046427
0.57311743 0.34001771 0.59960556
0.71118510 0.25998852 0.59238756
0.82464397 0.16809784 0.59392792
0.00118909 0.77409530 0.68204826
0.00612551 0.76103222 0.68216872
0.20372823 0.74164921 0.67763597
0.47576511 0.69310784 0.66081136
0.65215689 0.64511317 0.65291095
0.79517305 0.59866762 0.65129381
0.91655564 0.52793717 0.65181184
0.02506552 0.95375711 0.71004373
0.14761110 0.94464934 0.70703250
0.38623437 0.92073303 0.69733703
0.57076383 0.88923585 0.68711829
0.72079688 0.84816355 0.68204480
0.85733479 0.81179184 0.68027359
0.97008556 0.77236378 0.68728107
0.50103420 1.00000000 0.70090061
0.53763151 0.99847335 0.69249755
0.61102736 0.99907154 0.69056022
0.71021593 0.99758750 0.69081557
0.81588882 0.99184585 0.68983561
0.93209654 0.97462702 0.68762523
0.99405199 0.95158970 0.70009547
0.00000000 0.00075702 0.14379244
0.00000000 0.00006572 0.14126182
0.00370093 0.00000000 0.14037317
0.03632375 0.00000000 0.13591255
0.10333093 0.00000000 0.17003403
0.21169906 0.00000000 0.23967197
0.35745616 0.00000000 0.31941038
0.00000000 0.00482847 0.15116677
0.00118572 0.00349441 0.15000725
0.00787856 0.00130731 0.14749159
0.04185874 0.00057694 0.14463993
0.10897988 0.00015380 0.18708461
0.22180871 0.00000000 0.26457826
0.35328012 0.00000000 0.33805629
0.00285927 0.08670687 0.37774324
0.00960088 0.07215105 0.34652969
0.04638325 0.04858765 0.30594527
0.09823161 0.01888490 0.25881585
0.17317623 0.00524315 0.27175849
0.28732540 0.00263597 0.33655812
0.42516674 0.00231331 0.40919978
0.00494038 0.44340724 0.77422881
0.01292351 0.43318588 0.77594954
0.14405358 0.40199825 0.76360667
0.36320120 0.34074056 0.74222714
0.52769023 0.27174321 0.72905803
0.65614766 0.18798460 0.71204495
0.76230256 0.10166238 0.69797547
0.00067374 0.73734099 0.81965595
0.00886165 0.72985840 0.81685072
0.17880176 0.70624483 0.80865240
0.44238234 0.65913218 0.79270613
0.61457950 0.61503237 0.78127670
0.75096136 0.55935991 0.77086323
0.87529778 0.49280417 0.76543605
0.01314506 0.93572062 0.84830463
0.11347601 0.92650723 0.84565651
0.33881664 0.90150803 0.83360499
0.52414972 0.87166524 0.82392532
0.67947125 0.83741951 0.81633782
0.81258124 0.80479509 0.81081557
0.93503147 0.75858611 0.80775875
0.44264078 1.00000000 0.85694474
0.47885954 0.99923986 0.85401696
0.55414021 0.99735433 0.84867805
0.65511650 0.99680537 0.84252483
0.76794738 0.98618555 0.83709192
0.87947989 0.97414207 0.83131123
0.98014539 0.95034432 0.82863075
0.00000000 0.00000000 0.17255242
0.00000000 0.00000000 0.16968429
0.00285748 0.00000000 0.16790465
0.03285302 0.00000000 0.16489655
0.10210347 0.00000000 0.21536720
0.20569340 0.00000000 0.29743679
0.34377645 0.00000000 0.37757869
0.00000000 0.00105329 0.17693170
0.00063415 0.00072816 0.17492055
0.00522059 0.00011698 0.17216138
0.03672562 0.00000000 0.17054836
0.10302780 0.00000000 0.22575525
0.20860312 0.00000000 0.31249855
0.33980936 0.00000000 0.39985375
0.00040332 0.01940469 0.22466791
0.00250855 0.01301392 0.20013384
0.01968874 0.00717712 0.19351647
0.06348508 0.00184948 0.21282152
0.13807405 0.00119608 0.28054655
0.23662557 0.00015131 0.35513439
0.35509852 0.00005678 0.43186394
0.02356395 0.34074348 0.88767463
0.04727297 0.32526454 0.88255757
0.17583899 0.28349915 0.86728239
0.34851509 0.22958802 0.84806201
0.47830655 0.15891217 0.81352361
0.53472477 0.07451625 0.71816583
0.55622273 0.01789136 0.62525143
0.00107926 0.67322624 0.92998683
0.02096167 0.66498274 0.92950100
0.24716321 0.63392752 0.91563261
0.44554335 0.58883190 0.89963919
0.58764708 0.53994983 0.88485134
0.71333921 0.48482153 0.86676526
0.82927883 0.40690050 0.85752553
0.07666522 0.90124631 0.96234626
0.19161262 0.88823837 0.95699847
0.36374918 0.86512941 0.94613177
0.51897681 0.83644307 0.93803924
0.65329528 0.80482763 0.92626315
0.78214949 0.77184564 0.91847795
0.89737892 0.72290778 0.90444833
0.43339366 0.99676591 0.97909546
0.46789131 0.99596870 0.97768724
0.53786647 0.99559718 0.97204101
0.62814450 0.99457794 0.97031891
0.73156548 0.98426759 0.96243775
0.84662789 0.96407962 0.95053929
0.95163155 0.94776732 0.95123279
