src/assets/luts/kodak_portra_160_vc_deep_black_smooth.cube
TITLE "Kodak Portra 160 VC - Deep Black Smooth"
LUT_3D_SIZE 7
DOMAIN_MIN 0.0 0.0 0.0
DOMAIN_MAX 1.0 1.0 1.0
0.00551840 0.00769034 0.00828021
0.02283904 0.00739178 0.00803827
0.06584192 0.00908921 0.00556896
0.17588689 0.00854349 0.00480814
0.40402684 0.00909908 0.00178577
0.81964595 0.06980839 0.00052810
0.99360627 0.16356353 0.00008186
0.00159992 0.02575372 0.01132730
0.02415401 0.03593092 0.01091815
0.16240517 0.08044852 0.00476859
0.44410066 0.12832626 0.00772780
0.74992748 0.16832431 0.00392092
0.90881801 0.20244490 0.00606386
0.99639076 0.25303531 0.00121662
0.00174968 0.23051724 0.08439651
0.01371438 0.25935526 0.08344850
0.27789298 0.34887728 0.02383137
0.55338097 0.36548948 0.00326230
0.75797242 0.33879846 0.00278614
0.90214068 0.34822452 0.00549913
0.99140453 0.36005643 0.00326197
0.00076155 0.50191635 0.18929113
0.00451635 0.50698841 0.20025872
0.21204461 0.52042377 0.16346827
0.49009740 0.54242355 0.04686549
0.73103887 0.54743248 0.00165694
0.88310337 0.51116431 0.00392157
0.99299026 0.49368221 0.00223236
0.00759580 0.66429436 0.30763501
0.05628032 0.66666603 0.30803630
0.26341307 0.66423166 0.30753189
0.45598012 0.67452508 0.25435749
0.66067630 0.68930465 0.14241271
0.86495197 0.70183784 0.01419883
0.98213089 0.67351091 0.00518245
0.32953817 0.79796737 0.46567723
0.35913888 0.79462314 0.46996623
0.44841623 0.79436743 0.47931865
0.53297490 0.79731417 0.45769626
0.66256547 0.80671126 0.41002047
0.80835325 0.81784868 0.32923764
0.96428335 0.83308136 0.23178820
0.59364265 0.91100508 0.65687579
0.60851508 0.91142821 0.66315687
0.64648086 0.91073692 0.66788584
0.68678617 0.90852129 0.66830218
0.74330330 0.91910058 0.65393746
0.82185578 0.92899555 0.61829895
0.92436039 0.94158208 0.56981379
0.00201175 0.00905006 0.03033770
0.02263012 0.00862317 0.02944926
0.06444466 0.00219910 0.02749971
0.16851090 0.00044949 0.04004804
0.44574238 0.01024402 0.08067687
0.89058364 0.09613967 0.12390991
0.99724746 0.19763297 0.12165430
0.00159164 0.03841458 0.04280548
0.03500375 0.04959076 0.05407341
0.18710665 0.08458274 0.08246593
0.49863442 0.14052552 0.12378500
0.76916993 0.18156926 0.12227950
0.91697317 0.21537623 0.10913062
0.99847490 0.26870900 0.10535673
0.00337691 0.30307843 0.19447656
0.06428521 0.32167308 0.20430877
0.31797788 0.35702965 0.18002971
0.56794745 0.35655445 0.10877261
0.76009172 0.33983371 0.07530186
0.90933168 0.35045913 0.06143881
0.99586970 0.37886935 0.06041620
0.00396723 0.52535963 0.28063300
0.05353592 0.52545083 0.28424156
0.27380833 0.52696294 0.27291727
0.51242375 0.54417437 0.20003474
0.73545712 0.54489207 0.08354839
0.89177871 0.50697440 0.02395944
0.98984075 0.50298917 0.01777936
0.07968862 0.67585903 0.36538339
0.19057494 0.67322570 0.37260839
0.32485095 0.66768956 0.37329274
0.48344418 0.67519498 0.33577392
0.67858410 0.69200683 0.26060674
0.86820954 0.69960177 0.15848935
0.98934782 0.67395306 0.05716955
0.38490218 0.79845667 0.50695401
0.41405556 0.79677701 0.50867361
0.47632715 0.79740781 0.51745450
0.56041777 0.79592592 0.50492340
0.67791623 0.80586082 0.46310204
0.81057215 0.81774092 0.39387819
0.96282387 0.83473581 0.32139581
0.61140567 0.91238523 0.67517579
0.62331808 0.91181439 0.67817444
0.65569592 0.91161454 0.68506151
0.69836366 0.91146791 0.69047189
0.74908340 0.91841894 0.67299128
0.82185847 0.92847919 0.64110327
0.92358577 0.94197291 0.60302174
0.00110838 0.01558065 0.07596280
0.02885661 0.01750015 0.08344513
0.12612667 0.02636313 0.12689088
0.20656162 0.00255004 0.11935517
0.45657172 0.00296287 0.17210446
0.78770729 0.02540536 0.24875236
0.99832982 0.25932509 0.34197351
0.00236883 0.09024306 0.17060304
0.05090200 0.10606850 0.20304504
0.31297646 0.18288184 0.31609857
0.51708616 0.13373527 0.29970453
0.73962140 0.10867259 0.30044245
0.91723335 0.23881012 0.33195069
0.99210131 0.34750491 0.35438579
0.00304199 0.37060361 0.37258921
0.10104294 0.38077468 0.38267374
0.36086386 0.37894270 0.38202456
0.57794434 0.37030053 0.35371685
0.76147181 0.37787861 0.34334335
0.90091193 0.40333366 0.33299112
0.99657625 0.42724392 0.33734965
0.13355868 0.55417866 0.42371553
0.26162368 0.55218637 0.43060485
0.38038006 0.54194403 0.42070523
0.54576838 0.54897875 0.38739184
0.73865324 0.53529143 0.33192533
0.88728005 0.52212447 0.29278168
0.99348068 0.52857614 0.29621467
0.32808852 0.68950939 0.49156463
0.36016661 0.68708932 0.48696038
0.43024969 0.68130279 0.48336086
0.53432161 0.67788947 0.46901077
0.70144778 0.69539231 0.42168245
0.86653864 0.69867152 0.36306119
0.98310441 0.66679728 0.30545887
0.47205776 0.80292886 0.58101308
0.49223059 0.80138421 0.58149940
0.53674114 0.80094022 0.58720165
0.60738683 0.79802591 0.58116227
0.69407600 0.80553037 0.55813587
0.82029140 0.82004362 0.51249146
0.96203715 0.83227557 0.45595029
0.63701069 0.91302675 0.70979232
0.64755404 0.91177499 0.70997912
0.67541862 0.91072917 0.71564025
0.71548337 0.90991849 0.72188842
0.76273817 0.91358519 0.71429253
0.83084226 0.92691159 0.69087869
0.92183030 0.93928343 0.65267515
0.00090322 0.04474016 0.19929592
0.05084766 0.06271797 0.26789346
0.37734218 0.16387553 0.52024227
0.61438765 0.17718947 0.56235823
0.64000562 0.04946489 0.43020362
0.78156159 0.01705126 0.39871090
0.99626678 0.15470743 0.45370603
0.00221959 0.20156797 0.46262811
0.10793330 0.23895743 0.53895232
0.42509654 0.29157957 0.57940477
0.61684573 0.29836410 0.56797898
0.75484610 0.22334884 0.51253468
0.90520078 0.21337646 0.47770211
0.99514681 0.28520870 0.47384584
0.00444596 0.44324690 0.58793980
0.11109076 0.44542015 0.59112185
0.41303080 0.43910497 0.57829767
0.60202998 0.43630895 0.56297106
0.75248283 0.40575463 0.53166038
0.89827663 0.40504831 0.51134741
0.99390930 0.46320876 0.52733189
0.05611644 0.58344740 0.57349712
0.23928581 0.58203304 0.57545608
0.42903495 0.57569784 0.57788295
0.58439511 0.56570762 0.56724066
0.74111432 0.55819488 0.54173476
0.87719977 0.56970406 0.53919584
0.98254144 0.59069461 0.53824669
0.38026258 0.70560926 0.60400903
0.43782380 0.70287359 0.61301094
0.52593201 0.69963163 0.61713773
0.60757583 0.69519424 0.60402298
0.71648371 0.69837862 0.58161724
0.86484909 0.68898672 0.53709406
0.98371053 0.67410743 0.49643949
0.56440562 0.81505054 0.68467432
0.58243346 0.81139368 0.68151885
0.61525655 0.80814081 0.67709363
0.66459888 0.80837435 0.67824417
0.73270166 0.81202775 0.66553056
0.83528739 0.82149047 0.63202041
0.96398157 0.83114642 0.58437741
0.68260157 0.91791803 0.76547313
0.68498713 0.91471976 0.76041305
0.70778728 0.91346216 0.76350981
0.73990828 0.91526061 0.76708144
0.78475738 0.91726708 0.76435190
0.84257632 0.92826974 0.74831843
0.93244511 0.94219720 0.71871501
0.00229010 0.16972686 0.56649808
0.19636087 0.23950999 0.73055925
0.46422866 0.28636491 0.73896194
0.65722567 0.34623042 0.73217833
0.79602844 0.34845755 0.72648555
0.89003068 0.28172967 0.67207879
0.98992515 0.29458910 0.63015240
0.03949582 0.33777615 0.75973880
0.25697416 0.35180065 0.75888354
0.47219980 0.38455415 0.74674439
0.65998566 0.42756367 0.73646986
0.79325539 0.42356825 0.72693223
0.88287807 0.36724567 0.67733693
0.98822331 0.36572504 0.63991439
0.18293324 0.50407106 0.75193340
0.31871602 0.50245160 0.74977714
0.47721493 0.50237620 0.74443746
0.65073812 0.53424203 0.73289806
0.78127944 0.53138280 0.72659719
0.87608135 0.48520628 0.68247002
0.98625058 0.48081526 0.65789938
0.17502077 0.62254715 0.73264366
0.30549520 0.62051409 0.72919756
0.46156275 0.61743027 0.72889966
0.62636477 0.62345260 0.72248441
0.76030058 0.62746835 0.71676695
0.86941993 0.60051030 0.69532573
0.97889650 0.60239869 0.68671006
0.37815586 0.72714823 0.72388142
0.43403918 0.72552401 0.72356081
0.53045917 0.72232580 0.72653210
0.63389212 0.72278774 0.72999430
0.74484432 0.71778959 0.71968424
0.86255550 0.70827359 0.70079356
0.96743435 0.72139758 0.70196390
0.56530219 0.83027422 0.76358145
0.58728683 0.82694328 0.76538008
0.63739628 0.82408947 0.76678914
0.69930726 0.82427686 0.76290339
0.76482201 0.82181144 0.75561613
0.84502006 0.81732613 0.73939306
0.95878214 0.81968480 0.70564866
0.70037109 0.92608535 0.82728928
0.71246856 0.92448646 0.82437038
0.73985028 0.92463356 0.82603520
0.77343607 0.92248362 0.82431442
0.81108928 0.92356747 0.82161826
0.85938191 0.92918110 0.81509084
0.93561631 0.94216007 0.79296482
0.27694273 0.37512022 0.87155956
0.38754442 0.39128143 0.86893350
0.53510034 0.42120761 0.86206257
0.69037986 0.47499287 0.85552585
0.81776464 0.54126024 0.84807521
0.90951961 0.53143418 0.84181935
0.97977525 0.49413615 0.80969393
0.33065003 0.44970900 0.86822248
0.41783312 0.46444464 0.86461467
0.55775970 0.48552456 0.85971695
0.69816554 0.52987969 0.85523230
0.81764495 0.57783204 0.84783608
0.90469134 0.56909966 0.84120864
0.97639823 0.53525645 0.81451714
0.41287526 0.56549549 0.86150318
0.46316969 0.56424832 0.86079615
0.56957376 0.58056390 0.85751224
0.70000970 0.60745633 0.85201538
0.81526279 0.64128476 0.84758174
0.89768893 0.64014089 0.84352010
0.97287732 0.60531783 0.81751090
0.40253511 0.67059898 0.84949821
0.47159261 0.67197436 0.85029590
0.57874370 0.67424268 0.85226208
0.68457329 0.68732440 0.84589064
0.79752111 0.70782948 0.84811467
0.88334095 0.70415998 0.83948314
0.96270829 0.67567223 0.82267404
0.47130141 0.76215404 0.84565216
0.51368582 0.76108539 0.84308612
0.57874572 0.75984710 0.84155440
0.66316068 0.75902241 0.84440154
0.78005314 0.76918763 0.84547019
0.87599796 0.77325869 0.84307605
0.96377492 0.75184220 0.82623869
0.57083261 0.85018724 0.84794962
0.59683406 0.84494907 0.84573436
0.64697552 0.84437537 0.84922385
0.71054977 0.84234786 0.84903032
0.78525668 0.84187329 0.84966010
0.86330312 0.83846688 0.84520072
0.96425623 0.83611572 0.83024007
0.69460833 0.93439627 0.87856299
0.70877600 0.93591011 0.87964970
0.73521894 0.93314624 0.88186854
0.77609569 0.92821449 0.88241857
0.83187437 0.93388420 0.88926977
0.88219959 0.93450612 0.88374621
0.94513083 0.94082451 0.87229931
0.53508180 0.54829240 0.95575464
0.57714707 0.55725586 0.95162737
0.65513521 0.57835793 0.94795901
0.75665277 0.61640114 0.94407457
0.84368891 0.65607977 0.93680000
0.92121297 0.69983774 0.93530595
0.98567611 0.69392580 0.92929614
0.55683184 0.59145576 0.95306921
0.59866065 0.60190898 0.95247054
0.67099559 0.61564672 0.94665688
0.76164031 0.64413136 0.94276994
0.84792942 0.67838109 0.94032949
0.92114830 0.71541941 0.93592077
0.98421031 0.71122640 0.93296218
0.58501101 0.65546429 0.94923669
0.61662012 0.66114396 0.94904011
0.68134707 0.67186719 0.94847304
0.76419210 0.69199425 0.94283998
0.84808064 0.71629322 0.93886018
0.91890496 0.74892664 0.93552434
0.98019874 0.74473983 0.93447602
0.61271471 0.73979467 0.94801098
0.63927996 0.73895615 0.94729459
0.68685323 0.73820078 0.94587445
0.75517464 0.74909872 0.94076169
0.83785176 0.76633155 0.93798947
0.91129142 0.78965777 0.93670690
0.97469562 0.78949672 0.93465215
0.57742614 0.80802536 0.94725323
0.60576487 0.80659801 0.94565260
0.66169971 0.80794513 0.94668227
0.74160272 0.80950558 0.94433081
0.82578248 0.81863952 0.94203717
0.90483665 0.83397937 0.94183975
0.96588612 0.84032023 0.93651193
0.63352376 0.88264722 0.93993282
0.64823860 0.87993270 0.94223475
0.68864501 0.87935239 0.94472474
0.73842615 0.87870520 0.94376183
0.80316138 0.87976795 0.94809860
0.89438528 0.88509053 0.94700015
0.96539223 0.90232974 0.94195604
0.70652068 0.95340896 0.94711787
0.71338451 0.95505542 0.95014358
0.74143595 0.95418650 0.95045894
0.78382576 0.95128590 0.94984168
0.83513254 0.94980121 0.95412517
0.90031475 0.95059699 0.95224583
0.96200842 0.95822525 0.95511824
