src/assets/luts/kodak_portra_160_vc_deep_black_smooth.cube
TITLE "Kodak Portra 160 VC - Deep Black Smooth"
LUT_3D_SIZE 5
DOMAIN_MIN 0.0 0.0 0.0
DOMAIN_MAX 1.0 1.0 1.0
0.00551840 0.00769034 0.00828021
0.04049068 0.00735947 0.00778334
0.17588689 0.00854349 0.00480814
0.58728271 0.02539464 0.00129305
0.99360627 0.16356353 0.00008186
0.00089912 0.07648897 0.02881741
0.10997912 0.15372017 0.02192073
0.55520596 0.25246601 0.00543561
0.83663732 0.26333952 0.00466917
0.99381620 0.30004776 0.00259286
0.00076155 0.50191635 0.18929113
0.04990020 0.51055497 0.19200172
0.49009740 0.54242355 0.04686549
0.80941093 0.52954334 0.00321624
0.99299026 0.49368221 0.00223236
0.12782921 0.73585087 0.37627521
0.27886429 0.73178369 0.38754553
0.47971213 0.73698980 0.35450247
0.74225885 0.75493193 0.23034675
0.97969544 0.76264650 0.04790027
0.59364265 0.91100508 0.65687579
0.62355185 0.91195995 0.66706848
0.68678617 0.90852129 0.66830218
0.78070986 0.92414576 0.63919973
0.92436039 0.94158208 0.56981379
0.00083976 0.01175111 0.05178395
0.04592222 0.01231882 0.05196312
0.18105357 0.00071479 0.06993118
0.68701676 0.03612248 0.18197343
0.99703240 0.24139859 0.24523714
0.00148616 0.15149974 0.16122707
0.20370549 0.23358298 0.24106501
0.57938594 0.26551545 0.24669878
0.84229600 0.29499480 0.23229375
0.99325609 0.35235858 0.22980191
0.08711167 0.54171646 0.35595042
0.24868804 0.53606033 0.35276628
0.52950263 0.54823869 0.29501942
0.81904948 0.52501273 0.19097026
0.99281281 0.51089132 0.15060891
0.31226641 0.74095529 0.47413215
0.39309171 0.73972499 0.47917470
0.53745753 0.73600256 0.46672916
0.75518620 0.75961411 0.38540134
0.97752726 0.75905478 0.28428644
0.62543440 0.91263205 0.69188923
0.64649445 0.91123921 0.69452363
0.70524347 0.90908420 0.70455968
0.79020673 0.92233682 0.68143970
0.91920620 0.94212264 0.63083482
0.00090322 0.04474016 0.19929592
0.20378091 0.11060886 0.41310280
0.61438765 0.17718947 0.56235823
0.69230581 0.02449778 0.40175803
0.99626678 0.15470743 0.45370603
0.00442524 0.35647707 0.59201552
0.29772770 0.35944167 0.58612537
0.61422980 0.36944038 0.56913823
0.83177525 0.30284113 0.50087661
0.99611330 0.36894196 0.49523056
0.05611644 0.58344740 0.57349712
0.33474225 0.57803261 0.57436657
0.58439511 0.56570762 0.56724066
0.81475687 0.56278175 0.54006445
0.98254144 0.59069461 0.53824669
0.47755474 0.76117957 0.64295566
0.54716724 0.75571948 0.64673287
0.63697159 0.75331396 0.63506299
0.77796042 0.76357234 0.60192221
0.97642034 0.74857491 0.52958483
0.68260157 0.91791803 0.76547313
0.69634926 0.91270989 0.76266420
0.73990828 0.91526061 0.76708144
0.81134319 0.92027372 0.75530660
0.93244511 0.94219720 0.71871501
0.10073931 0.29772083 0.81980370
0.39411652 0.33160076 0.81326771
0.67142600 0.40745792 0.80034608
0.85911238 0.44082680 0.78849244
0.97888374 0.39377657 0.72331017
0.24938709 0.45433471 0.81766367
0.43441463 0.47438565 0.80939388
0.67638254 0.52469069 0.79758286
0.85100567 0.54005814 0.78855640
0.97667277 0.49200368 0.73645431
0.28517050 0.64380097 0.79531378
0.44477820 0.64466453 0.79289120
0.65449274 0.65351945 0.78703660
0.82849753 0.66407174 0.78229558
0.97005600 0.62679982 0.75110871
0.48456386 0.79013336 0.78803521
0.55962831 0.78751063 0.78817743
0.66951221 0.78555262 0.79243213
0.80914438 0.77654099 0.78263432
0.96246505 0.77392149 0.76062185
0.69677591 0.92983329 0.85119253
0.72065955 0.92750448 0.85191131
0.77868313 0.92549378 0.85427028
0.84689379 0.92801094 0.85251409
0.94031554 0.93907398 0.83308619
0.53508180 0.54829240 0.95575464
0.60916138 0.56352574 0.94756144
0.75665277 0.61640114 0.94407457
0.88521361 0.67955250 0.93707210
0.98567611 0.69392580 0.92929614
0.56911176 0.62080973 0.95144391
0.63540918 0.63552713 0.94846815
0.76589453 0.66845119 0.94479561
0.88634133 0.71305811 0.93633276
0.98146474 0.72692168 0.93458390
0.61271471 0.73979467 0.94801098
0.65844041 0.73634493 0.94563442
0.75517464 0.74909872 0.94076169
0.87440491 0.77874810 0.93657351
0.97469562 0.78949672 0.93465215
0.60465258 0.84614015 0.94356972
0.64641762 0.84320676 0.94308615
0.72728127 0.84366053 0.94584781
0.85761487 0.85225177 0.94440138
0.96559864 0.87039906 0.93976545
0.70652068 0.95340896 0.94711787
0.72645521 0.95456707 0.95017976
0.78382576 0.95128590 0.94984168
0.86642271 0.95122802 0.95491993
0.96200842 0.95822525 0.95511824
