src/assets/luts/kodak_portra_160_vc_deep_black_smooth.cube
TITLE "Kodak Portra 160 VC - Deep Black Smooth"
LUT_3D_SIZE 13
DOMAIN_MIN 0.0 0.0 0.0
DOMAIN_MAX 1.0 1.0 1.0
0.00551840 0.00769034 0.00828021
0.01092462 0.00784600 0.00791384
0.02283904 0.00739178 0.00803827
0.04049068 0.00735947 0.00778334
0.06584192 0.00908921 0.00556896
0.11028937 0.00993896 0.00421975
0.17588689 0.00854349 0.00480814
0.26766105 0.00645353 0.00421780
0.40402684 0.00909908 0.00178577
0.58728271 0.02539464 0.00129305
0.81964595 0.06980839 0.00052810
0.97593105 0.12424608 0.00086572
0.99360627 0.16356353 0.00008186
0.00390450 0.01265904 0.00858075
0.00945478 0.01437647 0.00868570
0.02309602 0.01580582 0.00720370
0.04462088 0.01848281 0.00573245
0.09083502 0.02594866 0.00522705
0.17036565 0.03590484 0.00596821
0.27382717 0.04035706 0.00731780
0.42625503 0.05151937 0.00642525
0.60758541 0.07136379 0.00226771
0.76979191 0.09939034 0.00408221
0.90797839 0.13598018 0.00388080
0.97709316 0.16940613 0.00158823
0.99759007 0.20558159 0.00015868
0.00159992 0.02575372 0.01132730
0.00534906 0.02713665 0.01110423
0.02415401 0.03593092 0.01091815
0.07283703 0.05647573 0.00732854
0.16240517 0.08044852 0.00476859
0.29182314 0.10665635 0.00532087
0.44410066 0.12832626 0.00772780
0.61405394 0.15172309 0.00950695
0.74992748 0.16832431 0.00392092
0.83806682 0.18493105 0.00648110
0.90881801 0.20244490 0.00606386
0.97439528 0.22751406 0.00258475
0.99639076 0.25303531 0.00121662
0.00089912 0.07648897 0.02881741
0.00257726 0.07998705 0.02969638
0.02221694 0.09994863 0.02984298
0.10997912 0.15372017 0.02192073
0.26640641 0.21728921 0.00754705
0.42740819 0.25340508 0.00515638
0.55520596 0.25246601 0.00543561
0.66370595 0.24811770 0.00639099
0.75875765 0.25191376 0.00432928
0.83663732 0.26333952 0.00466917
0.90703613 0.27583900 0.00476100
0.97332901 0.28819695 0.00303043
0.99381620 0.30004776 0.00259286
0.00174968 0.23051724 0.08439651
0.00483992 0.24248186 0.08693973
0.01371438 0.25935526 0.08344850
0.11099931 0.31132925 0.06663447
0.27789298 0.34887728 0.02383137
0.43116134 0.36854202 0.00526846
0.55338097 0.36548948 0.00326230
0.66121256 0.35107350 0.00301716
0.75797242 0.33879846 0.00278614
0.83238184 0.34058246 0.00464039
0.90214068 0.34822452 0.00549913
0.96659744 0.35538152 0.00394307
0.99140453 0.36005643 0.00326197
0.00164582 0.40589625 0.14654969
0.00438675 0.40782058 0.14751334
0.00527471 0.41408244 0.14572495
0.06991469 0.42389286 0.12915462
0.23660448 0.43849415 0.08682968
0.38795722 0.45488599 0.03206120
0.53825033 0.46948314 0.00411408
0.65332526 0.46083629 0.00132659
0.74437737 0.44138116 0.00194868
0.82261789 0.42722413 0.00400808
0.89454424 0.41984159 0.00435804
0.96020347 0.42163059 0.00377295
0.99118865 0.42511085 0.00287607
0.00076155 0.50191635 0.18929113
0.00377396 0.50338829 0.19657768
0.00451635 0.50698841 0.20025872
0.04990020 0.51055497 0.19200172
0.21204461 0.52042377 0.16346827
0.35156688 0.53033417 0.10904957
0.49009740 0.54242355 0.04686549
0.62817878 0.55557573 0.00579373
0.73103887 0.54743248 0.00165694
0.80941093 0.52954334 0.00321624
0.88310337 0.51116431 0.00392157
0.95401710 0.49819595 0.00290058
0.99299026 0.49368221 0.00223236
0.00306374 0.58445120 0.24671046
0.00361873 0.58708221 0.24994826
0.00584702 0.59059221 0.25344291
0.08010389 0.59036005 0.25105333
0.21864767 0.59393799 0.23788048
0.33867902 0.60030401 0.20487416
0.45649451 0.60976732 0.15505496
0.57883865 0.61903971 0.08011352
0.70223749 0.63000762 0.01580621
0.80062479 0.62639892 0.00232659
0.87392646 0.60916650 0.00372632
0.94437641 0.59167212 0.00378867
0.98830169 0.57925528 0.00327443
0.00759580 0.66429436 0.30763501
0.01214438 0.66656452 0.30714178
0.05628032 0.66666603 0.30803630
0.16733055 0.66418540 0.31110558
0.26341307 0.66423166 0.30753189
0.35880122 0.66801661 0.28914374
0.45598012 0.67452508 0.25435749
0.55550694 0.68147707 0.20912373
0.66067630 0.68930465 0.14241271
0.77275795 0.70153582 0.06386232
0.86495197 0.70183784 0.01419883
0.93356055 0.68640840 0.00605201
0.98213089 0.67351091 0.00518245
0.12782921 0.73585087 0.37627521
0.16013533 0.73503000 0.37821534
0.22128686 0.73425967 0.38181797
0.27886429 0.73178369 0.38754553
0.34443071 0.73183382 0.38789117
0.40716147 0.73309642 0.37708634
0.47971213 0.73698980 0.35450247
0.56070161 0.74243259 0.32367942
0.64963067 0.74900341 0.28636608
0.74225885 0.75493193 0.23034675
0.83352649 0.76567936 0.15810578
0.91950721 0.77005196 0.09223371
0.97969544 0.76264650 0.04790027
0.32953817 0.79796737 0.46567723
0.33431008 0.79511827 0.46701744
0.35913888 0.79462314 0.46996623
0.39705434 0.79436272 0.47567588
0.44841623 0.79436743 0.47931865
0.48918733 0.79451692 0.47158533
0.53297490 0.79731417 0.45769626
0.59195435 0.80126357 0.43941674
0.66256547 0.80671126 0.41002047
0.73293543 0.81217772 0.37379950
0.80835325 0.81784868 0.32923764
0.89343798 0.82712102 0.27437666
0.96428335 0.83308136 0.23178820
0.47472769 0.85645986 0.56134081
0.47495410 0.85367775 0.56378281
0.48585296 0.85271233 0.56826293
0.51164502 0.85386848 0.57312512
0.55200940 0.85502505 0.57537484
0.58080792 0.85236531 0.56823242
0.60721159 0.85404140 0.56296372
0.64775610 0.85870802 0.55401921
0.69976979 0.86447734 0.53530884
0.74930269 0.86939961 0.50914663
0.80482197 0.87360704 0.47682431
0.86897647 0.88024795 0.44174397
0.94480526 0.89128214 0.39919624
0.59364265 0.91100508 0.65687579
0.59824389 0.91057700 0.65951192
0.60851508 0.91142821 0.66315687
0.62355185 0.91195995 0.66706848
0.64648086 0.91073692 0.66788584
0.66455728 0.90767550 0.66779059
0.68678617 0.90852129 0.66830218
0.71088588 0.91225266 0.66032410
0.74330330 0.91910058 0.65393746
0.78070986 0.92414576 0.63919973
0.82185578 0.92899555 0.61829895
0.86924052 0.93481982 0.59711909
0.92436039 0.94158208 0.56981379
0.00446921 0.00775313 0.01448831
0.01012103 0.00733716 0.01485416
0.02223580 0.00621323 0.01405391
0.04028157 0.00481685 0.01305580
0.06429797 0.00432569 0.01263736
0.10223873 0.00411682 0.01481046
0.16681487 0.00330726 0.01849075
0.26321372 0.00281419 0.01926090
0.39442651 0.00581231 0.01779969
0.56798918 0.01903216 0.01531097
0.81246917 0.06384790 0.01716001
0.97796219 0.12711866 0.01363812
0.99597901 0.17065224 0.01513783
0.00289249 0.01445453 0.01639980
0.00975964 0.01508601 0.01703251
0.02346722 0.01533131 0.01586472
0.04545337 0.01637045 0.01473560
0.09022881 0.02216011 0.01874088
0.16789951 0.03040220 0.02510455
0.27041278 0.03395491 0.02826524
0.41224449 0.04143717 0.02497153
0.57606450 0.05626992 0.02103350
0.76728243 0.09173011 0.02040703
0.91337363 0.13231072 0.01539621
0.97843510 0.16951318 0.01012642
0.99901831 0.20897618 0.00878348
0.00149909 0.03049510 0.02232009
0.00610664 0.03175124 0.02327177
0.02911378 0.04162636 0.02666620
0.08358788 0.06101590 0.03005056
0.17726963 0.08481339 0.03151307
0.30574774 0.10874986 0.03304023
0.46182131 0.13002925 0.03345693
0.62856050 0.15059310 0.02638974
0.75948160 0.16761062 0.01760499
0.84492671 0.18369217 0.01526907
0.91450340 0.20054047 0.01307439
0.97568083 0.22538799 0.00784142
0.99888933 0.25458243 0.00782258
0.00186027 0.09747536 0.05573160
0.00453207 0.09819792 0.05586808
0.03271412 0.11877978 0.06218054
0.13207322 0.17283238 0.06830790
0.28809681 0.22655737 0.05052705
0.43965144 0.24935188 0.02973478
0.56664073 0.25103864 0.01921806
0.67282176 0.24962957 0.01519570
0.76395744 0.25193590 0.01171408
0.84069049 0.26176727 0.01156085
0.91087794 0.27342871 0.00938447
0.97307420 0.28839722 0.00879711
0.99661481 0.30774027 0.00770247
0.00253551 0.26468485 0.12675949
0.00460470 0.27002364 0.13180695
0.01845384 0.27548333 0.13002948
0.13413036 0.32658094 0.12651760
0.29325771 0.35337842 0.08634404
0.44270164 0.36806059 0.03642223
0.56218636 0.36323619 0.01516004
0.66627294 0.34801477 0.01072659
0.75877982 0.33773172 0.00862247
0.83437115 0.33995253 0.00920548
0.90557683 0.34681642 0.00864834
0.96814013 0.35714129 0.00805630
0.99396920 0.36754054 0.00726173
0.00089029 0.41755620 0.18428110
0.00399732 0.41884124 0.19198568
0.00855892 0.41998327 0.19096643
0.10471449 0.42957386 0.17617922
0.25865042 0.44399554 0.14491974
0.40235463 0.45820457 0.09016965
0.54340780 0.46823791 0.02822879
0.65554607 0.46038866 0.00971276
0.74636191 0.44152293 0.00555716
0.82523984 0.42743012 0.00608042
0.89801836 0.41924274 0.00504532
0.96122432 0.42449114 0.00620737
0.99263972 0.43066227 0.00661234
0.00124365 0.51031792 0.22603835
0.00427551 0.51187295 0.23182186
0.00900301 0.51260096 0.23267283
0.09710408 0.51547021 0.22685912
0.23921689 0.52385974 0.20338978
0.36657324 0.53112388 0.16772771
0.49933040 0.54210097 0.09989015
0.62882781 0.55435395 0.03258697
0.73217344 0.54851323 0.00602978
0.81230968 0.53045619 0.00532693
0.88636178 0.50996983 0.00565763
0.95235020 0.49770898 0.00411700
0.98871028 0.49901393 0.00516230
0.00058317 0.59312958 0.27655238
0.00505937 0.59482831 0.27720037
0.01881979 0.59571004 0.27746525
0.12781413 0.59280795 0.27972999
0.24168934 0.59346664 0.27013785
0.35565054 0.60016292 0.24435145
0.46839383 0.60960680 0.20101082
0.58344585 0.61946851 0.13728316
0.70537370 0.63123500 0.05429186
0.80229694 0.62752372 0.01458769
0.87813288 0.61073637 0.00570333
0.94465113 0.59248197 0.00436129
0.98648715 0.58119822 0.00529312
0.01399443 0.66940671 0.32837224
0.03446063 0.67091024 0.32997119
0.10607977 0.66941947 0.33275709
0.20584355 0.66554230 0.33789426
0.28859797 0.66536468 0.33449659
0.37420020 0.66858387 0.31985939
0.46365619 0.67564362 0.28678679
0.56071776 0.68239063 0.24849717
0.66634721 0.69077003 0.19302674
0.77424616 0.70030910 0.11652569
0.86629361 0.70134938 0.05020566
0.93530321 0.68854445 0.02204786
0.98638809 0.67537421 0.00800992
0.17007314 0.73771799 0.39599767
0.19869860 0.73606187 0.39981726
0.25007662 0.73474783 0.40442052
0.30498827 0.73322940 0.41039607
0.36949161 0.73353165 0.41005731
0.42554927 0.73481745 0.39891735
0.48946247 0.73851812 0.37713048
0.56556410 0.74260229 0.35007682
0.65453297 0.74881703 0.31506342
0.74570137 0.75470954 0.26668799
0.83551466 0.76373404 0.20665334
0.91929418 0.76843154 0.14781593
0.98016429 0.76279724 0.09955069
0.35006139 0.79821873 0.47987640
0.36071873 0.79657376 0.48473430
0.38258135 0.79470032 0.48808789
0.41764498 0.79446948 0.49429440
0.46198305 0.79568833 0.49670458
0.49819288 0.79461932 0.48839650
0.54248005 0.79688185 0.47644314
0.60049754 0.80134445 0.45869285
0.66843140 0.80596155 0.43028247
0.73731428 0.81163400 0.39711696
0.81075805 0.81732875 0.35322657
0.89233488 0.82545471 0.30579787
0.96265644 0.83361059 0.26936343
0.48501623 0.85612434 0.57101268
0.49124902 0.85527551 0.57742763
0.50360858 0.85334396 0.58145875
0.52401853 0.85413975 0.58506507
0.55938983 0.85616767 0.58791119
0.58671117 0.85442722 0.58364218
0.61581659 0.85492665 0.57874125
0.65471923 0.85884708 0.56737179
0.69876915 0.86337572 0.55063963
0.75150794 0.86878479 0.52506989
0.80611986 0.87406659 0.49408248
0.87293333 0.87925100 0.46069032
0.94376451 0.89126474 0.42435873
0.60032874 0.91192180 0.66444331
0.60659081 0.91248918 0.66817814
0.61180389 0.90957606 0.66780061
0.62536132 0.91026109 0.67130512
0.65023655 0.91201890 0.67614830
0.66856486 0.90980119 0.67627573
0.69238216 0.91064399 0.67813623
0.71625721 0.91348010 0.66951895
0.74440843 0.91788012 0.66025198
0.78042710 0.92375970 0.64802212
0.82155704 0.92959869 0.62816775
0.87130642 0.93463004 0.60709929
0.92360437 0.94050676 0.58470625
0.00201175 0.00905006 0.03033770
0.00942948 0.00876808 0.03057800
0.02263012 0.00862317 0.02944926
0.03916818 0.00606864 0.02810445
0.06444466 0.00219910 0.02749971
0.10141036 0.00119100 0.02968969
0.16851090 0.00044949 0.04004804
0.28330383 0.00138053 0.05868060
0.44574238 0.01024402 0.08067687
0.66066288 0.03620670 0.10381048
0.89058364 0.09613967 0.12390991
0.97769648 0.15146299 0.12160799
0.99724746 0.19763297 0.12165430
0.00172311 0.01770820 0.03277288
0.00693945 0.01756679 0.03273250
0.02394951 0.01804541 0.03298952
0.04792165 0.01805250 0.03406852
0.08528003 0.01614297 0.03737916
0.14243557 0.01465741 0.04468837
0.26533013 0.02433962 0.06732417
0.44470458 0.04317551 0.09220270
0.65135219 0.07625092 0.11264649
0.82057787 0.11506865 0.12105772
0.91809350 0.15140019 0.12122528
0.97726917 0.18680537 0.11527282
0.99956739 0.21967638 0.11573738
0.00159164 0.03841458 0.04280548
0.00626469 0.03932729 0.04368058
0.03500375 0.04959076 0.05407341
0.09250602 0.06538576 0.06780622
0.18710665 0.08458274 0.08246593
0.32844675 0.11213262 0.10529852
0.49863442 0.14052552 0.12378500
0.65761221 0.16353434 0.12692798
0.76916993 0.18156926 0.12227950
0.84765571 0.19730116 0.11425131
0.91697317 0.21537623 0.10913062
0.97564137 0.23979440 0.10285580
0.99847490 0.26870900 0.10535673
0.00161656 0.11938194 0.09470236
0.00609963 0.12451478 0.09830448
0.05546938 0.14804324 0.11506336
0.15784538 0.18895801 0.13448552
0.31296244 0.23615040 0.14318048
0.45594236 0.25153668 0.13547542
0.57343531 0.25406972 0.12228385
0.67640346 0.25490841 0.11038066
0.76525968 0.26049075 0.10483620
0.84224844 0.27033567 0.09936462
0.91398901 0.28059483 0.08820101
0.97482520 0.29704681 0.08589895
0.99743563 0.32197690 0.08881442
0.00337691 0.30307843 0.19447656
0.00987489 0.31218909 0.20105845
0.06428521 0.32167308 0.20430877
0.18085714 0.34103623 0.20440631
0.31797788 0.35702965 0.18002971
0.45329434 0.36398926 0.14243416
0.56794745 0.35655445 0.10877261
0.67111474 0.34376869 0.08499742
0.76009172 0.33983371 0.07530186
0.83660936 0.34411046 0.07160279
0.90933168 0.35045913 0.06143881
0.97107184 0.36239091 0.05669672
0.99586970 0.37886935 0.06041620
0.00396693 0.43652660 0.24857464
0.00631644 0.43863314 0.25105858
0.04712442 0.43626544 0.24802978
0.16766194 0.43853834 0.24598786
0.28850564 0.44836771 0.22575656
0.42074937 0.45998135 0.18652108
0.54792953 0.46516016 0.13550512
0.65881777 0.45501652 0.08811210
0.74999171 0.43574294 0.05725553
0.83131331 0.42238677 0.03926586
0.90141088 0.42069668 0.03322869
0.96441936 0.42832902 0.03137140
0.99536401 0.43878388 0.03758985
0.00396723 0.52535963 0.28063300
0.00752438 0.52724957 0.28371283
0.05353592 0.52545083 0.28424156
0.16906703 0.52334565 0.28548524
0.27380833 0.52696294 0.27291727
0.39134750 0.53441858 0.24398987
0.51242375 0.54417437 0.20003474
0.63383764 0.55351287 0.13603996
0.73545712 0.54489207 0.08354839
0.81902742 0.52643013 0.04783910
0.89177871 0.50697440 0.02395944
0.95525932 0.49869180 0.01316474
0.98984075 0.50298917 0.01777936
0.00571994 0.60420978 0.31886858
0.02416621 0.60650539 0.32158947
0.09838762 0.60358435 0.32254079
0.19385666 0.59959936 0.32536668
0.27957574 0.59826005 0.32037690
0.37704316 0.60347337 0.30005148
0.48198786 0.61139262 0.26535884
0.59395081 0.62057173 0.21877699
0.70847505 0.62998492 0.16206908
0.80505645 0.62591434 0.10338860
0.88182092 0.61057150 0.06167942
0.94737154 0.59184545 0.02640946
0.99087322 0.57925487 0.00927031
0.07968862 0.67585903 0.36538339
0.12284363 0.67667764 0.36940756
0.19057494 0.67322570 0.37260839
0.25690392 0.66931444 0.37556568
0.32485095 0.66768956 0.37329274
0.39664152 0.66893488 0.36047918
0.48344418 0.67519498 0.33577392
0.57306111 0.68319756 0.30444333
0.67858410 0.69200683 0.26060674
0.77847135 0.69946206 0.21079952
0.86820954 0.69960177 0.15848935
0.93586671 0.68698335 0.11051665
0.98934782 0.67395306 0.05716955
0.23953094 0.73995852 0.43140334
0.26697543 0.74012268 0.43302408
0.30258253 0.73684502 0.43599811
0.34475914 0.73498529 0.43760559
0.39347982 0.73449165 0.43722713
0.44737151 0.73397183 0.43399480
0.51254642 0.73638809 0.41533071
0.58442217 0.74251157 0.39289644
0.66340882 0.74994397 0.36264691
0.75032622 0.75763464 0.32106915
0.84165412 0.76552498 0.27102476
0.91952801 0.76812136 0.22987026
0.97781700 0.76005721 0.19308165
0.38490218 0.79845667 0.50695401
0.39395428 0.79803360 0.50555682
0.41405556 0.79677701 0.50867361
0.44444743 0.79633504 0.51380980
0.47632715 0.79740781 0.51745450
0.51498055 0.79636216 0.51440287
0.56041777 0.79592592 0.50492340
0.61467642 0.80064309 0.48827749
0.67791623 0.80586082 0.46310204
0.73856777 0.81182623 0.43191904
0.81057215 0.81774092 0.39387819
0.89119565 0.82799864 0.35230240
0.96282387 0.83473581 0.32139581
0.50463665 0.85646272 0.58795100
0.51133782 0.85465145 0.59069079
0.52214354 0.85293925 0.59345895
0.54168981 0.85473555 0.59804976
0.56955415 0.85618871 0.60326624
0.59612483 0.85613453 0.60311449
0.62825894 0.85526812 0.59822625
0.66244191 0.85762024 0.58598375
0.70364308 0.86239314 0.56981957
0.75638312 0.86808753 0.54683876
0.80584705 0.87451309 0.52326423
0.87238556 0.88135844 0.48898682
0.94410092 0.89380795 0.45524302
0.61140567 0.91238523 0.67517579
0.61584640 0.91160816 0.67677319
0.62331808 0.91181439 0.67817444
0.63617748 0.91170913 0.68113279
0.65569592 0.91161454 0.68506151
0.67470491 0.91209012 0.68870538
0.69836366 0.91146791 0.69047189
0.72231609 0.91364717 0.68426538
0.74908340 0.91841894 0.67299128
0.78409171 0.92352545 0.66119474
0.82185847 0.92847919 0.64110327
0.87021303 0.93502760 0.62355900
0.92358577 0.94197291 0.60302174
0.00083976 0.01175111 0.05178395
0.00591130 0.01076901 0.05087739
0.02535102 0.01240350 0.05071088
0.04592222 0.01231882 0.05196312
0.06782803 0.00646009 0.05071458
0.10446290 0.00129258 0.05393446
0.18105357 0.00071479 0.06993118
0.29977449 0.00089794 0.09065417
0.44894964 0.00557632 0.12185581
0.68701676 0.03612248 0.18197343
0.91735035 0.13014781 0.23754619
0.97431332 0.19532499 0.24166976
0.99703240 0.24139859 0.24523714
0.00114887 0.02180277 0.05454207
0.00428285 0.02103702 0.05410882
0.02977094 0.02625707 0.06440361
0.06859650 0.03339849 0.07850912
0.10549989 0.02721942 0.07863782
0.13929853 0.01060657 0.07130162
0.21427757 0.00525816 0.08345600
0.36461642 0.01246808 0.11692527
0.59746676 0.04403521 0.17330062
0.84442920 0.12493339 0.23423653
0.91766036 0.18668415 0.24116164
0.97399038 0.22670232 0.24031110
0.99803305 0.26455545 0.24587895
0.00157395 0.05706829 0.08820207
0.00465877 0.05784471 0.08902641
0.04321478 0.07098687 0.10868208
0.12910793 0.09810489 0.14559638
0.21958061 0.10787689 0.16265189
0.34086951 0.10823332 0.17821359
0.48991324 0.11766537 0.20276759
0.65459818 0.14403876 0.22835851
0.77156419 0.18686958 0.24100889
0.84816545 0.22196846 0.24187079
0.91533989 0.24669163 0.23784901
0.97129589 0.27168974 0.23344681
0.99394709 0.30717787 0.23913969
0.00148616 0.15149974 0.16122707
0.00633792 0.16309121 0.17286099
0.06992896 0.18984026 0.19972330
0.20370549 0.23358298 0.24106501
0.33837865 0.25575610 0.25343691
0.46728000 0.26029429 0.25107557
0.57938594 0.26551545 0.24669878
0.67941058 0.27035743 0.23976915
0.76623923 0.28092736 0.23748171
0.84229600 0.29499480 0.23229375
0.91151863 0.30807942 0.22535135
0.96945190 0.32603839 0.22369371
0.99325609 0.35235858 0.22980191
0.00272480 0.33468038 0.27632607
0.02036360 0.34825919 0.28669993
0.12730189 0.35570738 0.29389083
0.23147438 0.35671854 0.29232326
0.34132558 0.36098936 0.27853474
0.46502301 0.36226329 0.25495082
0.57609576 0.35506052 0.23481405
0.67304629 0.35310382 0.22215904
0.76044154 0.35433918 0.21713740
0.83749038 0.36245814 0.21079259
0.90637296 0.37145570 0.20484629
0.96683186 0.38252148 0.20536172
0.99374640 0.40000647 0.21066672
0.02007185 0.45255762 0.32287860
0.07531418 0.45700559 0.32610929
0.15490836 0.45388937 0.32483846
0.23970382 0.45183039 0.32026786
0.32624966 0.45309788 0.31068841
0.44064245 0.46174023 0.28561512
0.56057727 0.46412891 0.25248453
0.66188222 0.44908282 0.22131595
0.75061744 0.43708849 0.20230342
0.83015823 0.43323091 0.18879379
0.90107530 0.43526912 0.17888634
0.96248788 0.44268885 0.17724553
0.99655169 0.45304742 0.18562281
0.08711167 0.54171646 0.35595042
0.11602212 0.54331708 0.35594967
0.17384094 0.53977615 0.35305792
0.24868804 0.53606033 0.35276628
0.32519346 0.53204298 0.34854534
0.41727421 0.53846282 0.32741806
0.52950263 0.54823869 0.29501942
0.64208305 0.55237097 0.25598729
0.73683691 0.54067415 0.22405508
0.81904948 0.52501273 0.19097026
0.89149666 0.51148736 0.15915258
0.95751017 0.50548047 0.14472286
0.99281281 0.51089132 0.15060891
0.11809120 0.61590838 0.38290980
0.15391268 0.61597514 0.38496763
0.21188667 0.61186510 0.38517487
0.27361086 0.60933870 0.38542336
0.34166667 0.60561246 0.38273206
0.41207018 0.60793054 0.36931157
0.50200659 0.61427677 0.34283328
0.60630602 0.62374556 0.30768874
0.71845442 0.63167036 0.26733446
0.80687392 0.62244999 0.23223443
0.88067389 0.60554445 0.19402407
0.94759387 0.58920145 0.15919387
0.99317449 0.57756644 0.12439511
0.20078176 0.68178022 0.41978270
0.23397556 0.68272787 0.42257538
0.27295631 0.67927969 0.42507473
0.32143453 0.67564088 0.42557669
0.37532875 0.67354095 0.42386681
0.43416291 0.67284673 0.41904667
0.50904900 0.67642242 0.39812243
0.59054732 0.68418145 0.37161136
0.69188106 0.69546002 0.33553430
0.78654087 0.70392126 0.29897738
0.86775744 0.69832432 0.26052743
0.93399137 0.68186539 0.22591011
0.98704362 0.67040849 0.19093312
0.31226641 0.74095529 0.47413215
0.33378306 0.74156880 0.47841144
0.35859793 0.74147362 0.47810444
0.39309171 0.73972499 0.47917470
0.43123254 0.73744410 0.48105049
0.47812560 0.73539120 0.47869852
0.53745753 0.73600256 0.46672916
0.60739380 0.74184477 0.44505885
0.67788655 0.75121832 0.41927132
0.75518620 0.75961411 0.38540134
0.84255320 0.76770002 0.34780034
0.91891629 0.76568544 0.31397578
0.97752726 0.75905478 0.28428644
0.42549121 0.79843134 0.54145688
0.43481374 0.79831445 0.53981650
0.45136163 0.79838973 0.54039061
0.47453374 0.79894942 0.54544997
0.50136197 0.79836994 0.54889369
0.53759909 0.79732841 0.54527742
0.57973677 0.79629898 0.53958279
0.62970269 0.79969209 0.52730793
0.68787301 0.80519903 0.50600314
0.74581277 0.81143069 0.48202121
0.81565672 0.81949151 0.44946975
0.89490801 0.82837331 0.41226816
0.96202832 0.83341891 0.38646749
0.53015482 0.85624647 0.61603665
0.53433579 0.85617685 0.61314887
0.54098707 0.85545486 0.61191076
0.56000769 0.85595155 0.61828792
0.58568925 0.85618871 0.62675977
0.60882062 0.85618871 0.62407964
0.64188939 0.85364449 0.62022841
0.67290306 0.85576004 0.61511344
0.71475017 0.86126220 0.60248435
0.76176000 0.86618114 0.58330047
0.80966735 0.87340814 0.56110758
0.87318707 0.88154280 0.52957499
0.94262451 0.89429039 0.50192386
0.62543440 0.91263205 0.69188923
0.62563348 0.91136640 0.68922484
0.63371855 0.91115099 0.69125706
0.64649445 0.91123921 0.69452363
0.66386992 0.91074675 0.69885594
0.68124866 0.91110754 0.70049971
0.70524347 0.90908420 0.70455968
0.73066503 0.91067994 0.70336646
0.75716776 0.91717321 0.69449019
0.79020673 0.92233682 0.68143970
0.82740551 0.92891645 0.66706473
0.87203926 0.93521899 0.64910787
0.91920620 0.94212264 0.63083482
0.00110838 0.01558065 0.07596280
0.00298996 0.01445573 0.07593485
0.02885661 0.01750015 0.08344513
0.08488730 0.03124755 0.12112738
0.12612667 0.02636313 0.12689088
0.13617176 0.00755204 0.10366764
0.20656162 0.00255004 0.11935517
0.32768596 0.00338902 0.14995311
0.45657172 0.00296287 0.17210446
0.58680070 0.00324608 0.19528598
0.78770729 0.02540536 0.24875236
0.97855091 0.14841017 0.31568354
0.99832982 0.25932509 0.34197351
0.00168475 0.03120390 0.09211742
0.00276035 0.03016839 0.09189485
0.03886180 0.04168198 0.12164204
0.12702086 0.07105219 0.18257283
0.20467487 0.07844830 0.20583480
0.23661778 0.04626060 0.17884470
0.26570635 0.01558888 0.15236305
0.35308073 0.00668818 0.16130450
0.47497726 0.00484488 0.18288618
0.65881491 0.01954256 0.22692735
0.92240185 0.10887371 0.30863996
0.97541904 0.21943149 0.32916829
0.99766332 0.30067715 0.35109630
0.00236883 0.09024306 0.17060304
0.00425808 0.08831690 0.16986393
0.05090200 0.10606850 0.20304504
0.19113711 0.16144259 0.28452103
0.31297646 0.18288184 0.31609857
0.41745971 0.16792938 0.31451745
0.51708616 0.13373527 0.29970453
0.59799939 0.09640702 0.28080811
0.73962140 0.10867259 0.30044245
0.85239100 0.16718262 0.32097846
0.91723335 0.23881012 0.33195069
0.96889025 0.29863760 0.34285206
0.99210131 0.34750491 0.35438579
0.00324198 0.22237181 0.29411847
0.00749099 0.23298814 0.30558700
0.06280934 0.25023076 0.32752847
0.23746831 0.28794731 0.37126500
0.36115387 0.28851599 0.37013406
0.46833736 0.27849755 0.35779417
0.58209705 0.26662326 0.34712687
0.68301481 0.26528254 0.34237316
