src/assets/luts/Rec709%20Fujifilm%203513DI%20D60_17.cube
TITLE "Rec709 Fujifilm 3513DI D60 (17 point)"
LUT_3D_SIZE 17
DOMAIN_MIN 0.0 0.0 0.0
DOMAIN_MAX 1.0 1.0 1.0
0.0287459996 0.0230579991 0.0298330002
0.0288520008 0.0212229993 0.0269389991
0.0297260005 0.0206310004 0.0401020013
0.0258959997 0.0273039993 0.0543540008
0.0215319991 0.0154740000 0.1036500037
0.0036740000 0.0000000000 0.1558780074
0.0000000000 0.0000000000 0.2241600007
0.0000000000 0.0000000000 0.2897869945
0.0000000000 0.0000000000 0.3501749933
0.0000000000 0.0000000000 0.4009310007
0.0000000000 0.0000000000 0.4407239854
0.0000000000 0.0000000000 0.4691630006
0.0000000000 0.0000000000 0.4870440066
0.0000000000 0.0000000000 0.4986959994
0.0000000000 0.0000000000 0.5053849816
0.0000000000 0.0000000000 0.5105530024
0.0000000000 0.0000000000 0.5146139860
0.0299929995 0.0307129994 0.0339279994
0.0304210000 0.0310750008 0.0288050007
0.0286960006 0.0309919994 0.0402510017
0.0284320004 0.0319960006 0.0539279990
0.0270489994 0.0285880007 0.1038009971
0.0114479996 0.0049310001 0.1551609933
0.0000000000 0.0000550000 0.2263049930
0.0000000000 0.0000000000 0.2959170043
0.0000000000 0.0000000000 0.3601750135
0.0000000000 0.0000000000 0.4143239856
0.0000000000 0.0000000000 0.4570910037
0.0000000000 0.0000000000 0.4881780148
0.0000000000 0.0000000000 0.5085260272
0.0000000000 0.0000000000 0.5219179988
0.0000000000 0.0000000000 0.5298349857
0.0000000000 0.0000000000 0.5365999937
0.0000000000 0.0000000000 0.5424060225
0.0284570009 0.0461690016 0.0376200005
0.0271680001 0.0469390005 0.0324189998
0.0246879999 0.0481729992 0.0433869995
0.0202830005 0.0503010005 0.0572919995
0.0026090001 0.0511600003 0.1090800017
0.0000000000 0.0435420014 0.1629090011
0.0000000000 0.0050920001 0.2320339978
0.0000000000 0.0000000000 0.3052999973
0.0000000000 0.0000000000 0.3733640015
0.0000000000 0.0000000000 0.4309169948
0.0000000000 0.0000000000 0.4767720103
0.0000000000 0.0000000000 0.5101019740
0.0000000000 0.0000000000 0.5318719745
0.0000000000 0.0000000000 0.5462989807
0.0000000000 0.0000000000 0.5549690127
0.0000000000 0.0000000000 0.5624369979
0.0000000000 0.0000000000 0.5688970089
0.0185889993 0.0630289987 0.0414530002
0.0187599994 0.0635410026 0.0384900011
0.0088959998 0.0652749985 0.0516549982
0.0003070000 0.0687350035 0.0659760013
0.0000140000 0.0718630031 0.1230010018
0.0000000000 0.0700299963 0.1826310009
0.0000000000 0.0527269989 0.2542119920
0.0000000000 0.0057420000 0.3253650069
0.0000000000 0.0000000000 0.3966949880
0.0000000000 0.0000000000 0.4574370086
0.0000000000 0.0000000000 0.5066040158
0.0000000000 0.0000000000 0.5415610075
0.0000000000 0.0000000000 0.5629910231
0.0000000000 0.0000000000 0.5773540139
0.0000000000 0.0000000000 0.5861039758
0.0000000000 0.0000000000 0.5928540230
0.0000000000 0.0000000000 0.5982450247
0.0000000000 0.0975119993 0.0461080000
0.0000000000 0.0999369994 0.0435569994
0.0000000000 0.1041970029 0.0595810004
0.0000000000 0.1105580032 0.0776090026
0.0000000000 0.1190460026 0.1406019926
0.0000000000 0.1261190027 0.2066870034
0.0000000000 0.1228799969 0.2864840031
0.0000000000 0.1071809977 0.3593389988
0.0000000000 0.0701460019 0.4226349890
0.0000000000 0.0215080008 0.4788559973
0.0000000000 0.0000000000 0.5293480158
0.0000000000 0.0000410000 0.5653570294
0.0000000000 0.0000000000 0.5865749717
0.0000000000 0.0000000000 0.6007040143
0.0000000000 0.0000000000 0.6091290116
0.0000000000 0.0000000000 0.6150140166
0.0000000000 0.0000000000 0.6192560196
0.0000000000 0.1356499940 0.0495520011
0.0000000000 0.1401119977 0.0450370014
0.0000000000 0.1467889994 0.0655559972
0.0000000000 0.1562069952 0.0890719965
0.0000000000 0.1690849960 0.1586859971
0.0000000000 0.1792200059 0.2297279984
0.0000000000 0.1886029989 0.3164879978
0.0000000000 0.1898269951 0.3981530070
0.0000000000 0.1755599976 0.4670569897
0.0000000000 0.1552720070 0.5242620111
0.0000000000 0.1399600059 0.5692070127
0.0000000000 0.1248650029 0.6000630260
0.0000000000 0.1047580019 0.6163669825
0.0000000000 0.1027880013 0.6297169924
0.0000000000 0.1056369990 0.6381570101
0.0000000000 0.1171580032 0.6448400021
0.0000000000 0.1270689964 0.6494830251
0.0000000000 0.1833350062 0.0439339988
0.0000000000 0.1908780038 0.0361110009
0.0000000000 0.2006019950 0.0636380017
0.0000000000 0.2134899944 0.0944319963
0.0000000000 0.2301339954 0.1702709943
0.0000000000 0.2463659942 0.2472790033
0.0000000000 0.2609399855 0.3399499953
0.0000000000 0.2667720020 0.4248000085
0.0000000000 0.2726320028 0.5061579943
0.0000000000 0.2703750134 0.5697119832
0.0000000000 0.2633720040 0.6189119816
0.0000000000 0.2644400001 0.6528999805
0.0000000000 0.2542560101 0.6699619889
0.0000000000 0.2540769875 0.6827189922
0.0000000000 0.2552439868 0.6901550293
0.0000000000 0.2659130096 0.6986140013
0.0000000000 0.2729170024 0.7029060125
0.0000000000 0.2337410003 0.0254980009
0.0000000000 0.2451599985 0.0000000000
0.0000000000 0.2575150132 0.0549499989
0.0000000000 0.2741009891 0.0972340032
0.0000000000 0.2948729992 0.1814109981
0.0000000000 0.3172590137 0.2660309970
0.0000000000 0.3351179957 0.3617370129
0.0000000000 0.3480179906 0.4524619877
0.0000000000 0.3563440144 0.5357000232
0.0000000000 0.3658410013 0.6072499752
0.0000000000 0.3691659868 0.6617000103
0.0000000000 0.3705309927 0.6954209805
0.0000000000 0.3705829978 0.7168170214
0.0000000000 0.3729180098 0.7307389975
0.0000000000 0.3712350130 0.7346900105
0.0000000000 0.3714559972 0.7373589873
0.0000000000 0.3748410046 0.7410799861
0.0000000000 0.2947109938 0.0000000000
0.0000000000 0.3113920093 0.0000000000
0.0000000000 0.3235639930 0.0140500003
0.0000000000 0.3451839983 0.0980189964
0.0000000000 0.3694989979 0.1949280053
0.0000000000 0.3944959939 0.2868340015
0.0000000000 0.4169859886 0.3866229951
0.0000000000 0.4387420118 0.4862230122
0.0000000000 0.4505229890 0.5698000193
0.0000000000 0.4616819918 0.6422799826
0.0000000000 0.4677940011 0.6973440051
0.0000000000 0.4704680145 0.7318699956
0.0000000000 0.4735350013 0.7543460131
0.0000000000 0.4713310003 0.7622979879
0.0000000000 0.4728310108 0.7703369856
0.0000000000 0.4746130109 0.7745680213
0.0000000000 0.4769259989 0.7781969905
0.0000000000 0.3491789997 0.0000000000
0.0000000000 0.3688209951 0.0000000000
0.0000000000 0.3826180100 0.0000000000
0.0000000000 0.4056380093 0.1037750021
0.0000000000 0.4329540133 0.2119980007
0.0000000000 0.4603109956 0.3111009896
0.0000000000 0.4858709872 0.4151769876
0.0000000000 0.5059270263 0.5109369755
0.0000000000 0.5236309767 0.6004629731
0.0000000000 0.5322059989 0.6705139875
0.0000000000 0.5410349965 0.7227339745
0.0000000000 0.5451130271 0.7591590285
0.0000000000 0.5476179719 0.7789490223
0.0000000000 0.5489599705 0.7918490171
0.0000000000 0.5519109964 0.8002679944
0.0000000000 0.5530740023 0.8036630154
0.0000000000 0.5528309941 0.8040840030
0.0000000000 0.3940080106 0.0000000000
0.0000000000 0.4149279892 0.0000000000
0.0000000000 0.4284909964 0.0000000000
0.0000000000 0.4507870078 0.1167720035
0.0000000000 0.4788039923 0.2309159935
0.0000000000 0.5066499710 0.3348700106
0.0000000000 0.5310339928 0.4381690025
0.0000000000 0.5519040227 0.5367890000
0.0000000000 0.5677769780 0.6218699813
0.0000000000 0.5785279870 0.6908900142
0.0000000000 0.5854359865 0.7418529987
0.0000000000 0.5886009932 0.7764139771
0.0000000000 0.5910609961 0.7941340208
0.0000000000 0.5931010246 0.8055369854
0.0000000000 0.5961440206 0.8111739755
0.0000000000 0.5971310139 0.8144119978
0.0000000000 0.5979030132 0.8162019849
0.0000000000 0.4263310134 0.0000000000
0.0000000000 0.4469409883 0.0000000000
0.0000000000 0.4587680101 0.0000000000
0.0000000000 0.4828340113 0.1420670003
0.0000000000 0.5107229948 0.2556369901
0.0000000000 0.5380619764 0.3608930111
0.0000000000 0.5620859861 0.4649670124
0.0000000000 0.5804110169 0.5600439906
0.0000000000 0.5952770114 0.6422899961
0.0000000000 0.6054779887 0.7086309791
0.0000000000 0.6101859808 0.7555969954
0.0000000000 0.6182010174 0.7885720134
0.0000000000 0.6178910136 0.8045240045
0.0000000000 0.6194390059 0.8137159944
0.0000000000 0.6204680204 0.8182830215
0.0000000000 0.6220769882 0.8229330182
0.0000000000 0.6225849986 0.8245710135
0.0000000000 0.4469999969 0.0000000000
0.0000000000 0.4656549990 0.0000000000
0.0000000000 0.4759579897 0.0447600000
0.0000000000 0.5027459860 0.1745190024
0.0000000000 0.5297489762 0.2845939994
0.0000000000 0.5551019907 0.3897460103
0.0000000000 0.5777410269 0.4925459921
0.0000000000 0.5961300135 0.5853270292
0.0000000000 0.6105120182 0.6652699709
0.0000000000 0.6213949919 0.7285889983
0.0000000000 0.6253359914 0.7706850171
0.0000000000 0.6272469759 0.7963299751
0.0000000000 0.6279640198 0.8105000257
0.0000000000 0.6295080185 0.8185430169
0.0000000000 0.6317729950 0.8249390125
0.0000000000 0.6322609782 0.8272659779
0.0000000000 0.6323119998 0.8282170296
0.0000000000 0.4607529938 0.0000000000
0.0000000000 0.4780400097 0.0000000000
0.0000000000 0.4908840060 0.0887110010
0.0000000000 0.5176190138 0.2062879950
0.0000000000 0.5434179902 0.3137629926
0.0000000000 0.5675569773 0.4176380038
0.0000000000 0.5877140164 0.5156270266
0.0000000000 0.6049849987 0.6061549783
0.0000000000 0.6185299754 0.6813430190
0.0000000000 0.6252480149 0.7376210093
0.0000000000 0.6313840151 0.7798020244
0.0000000000 0.6333140135 0.8026170135
0.0000000000 0.6342359781 0.8133479953
0.0000000000 0.6357650161 0.8235359788
0.0000000000 0.6356269717 0.8259869814
0.0000000000 0.6348530054 0.8266839981
0.0000000000 0.6344670057 0.8270710111
0.0000000000 0.4699209929 0.0000000000
0.0000000000 0.4852400124 0.0000000000
0.0000000000 0.5038859844 0.1340900064
0.0000000000 0.5297799706 0.2416670024
0.0000000000 0.5539109707 0.3448019922
0.0000000000 0.5754989982 0.4441249967
0.0000000000 0.5958849788 0.5412020087
0.0000000000 0.6119719744 0.6271770000
0.0000000000 0.6238899827 0.6980180144
0.0000000000 0.6303259730 0.7507629991
0.0000000000 0.6317750216 0.7834489942
0.0000000000 0.6361520290 0.8069149852
0.0000000000 0.6363710165 0.8184710145
0.0000000000 0.6370109916 0.8245599866
0.0000000000 0.6360830069 0.8255890012
0.0000000000 0.6356790066 0.8265259862
0.0000000000 0.6352180243 0.8268430233
0.0000000000 0.4842250049 0.0000000000
0.0000000000 0.4991930127 0.0986770019
0.0000000000 0.5269659758 0.2107560039
0.0000000000 0.5502989888 0.3039169908
0.0000000000 0.5723670125 0.3986389935
0.0000000000 0.5916780233 0.4905569851
0.0000000000 0.6076589823 0.5759099722
0.0000000000 0.6222980022 0.6553180218
0.0000000000 0.6318870187 0.7182180285
0.0000000000 0.6379460096 0.7665370107
0.0000000000 0.6422259808 0.7971670032
0.0000000000 0.6450629830 0.8153910041
0.0000000000 0.6440860033 0.8226010203
0.0000000000 0.6442989707 0.8292610049
0.0000000000 0.6454669833 0.8320829868
0.0000000000 0.6455000043 0.8332899809
0.0000000000 0.6451749802 0.8336189985
0.0000000000 0.5003550053 0.0000000000
0.0000000000 0.5238959789 0.1764419973
0.0000000000 0.5535269976 0.2754409909
0.0000000000 0.5738899708 0.3650079966
0.0000000000 0.5912190080 0.4503499866
0.0000000000 0.6084730029 0.5372329950
0.0000000000 0.6241359711 0.6165379882
0.0000000000 0.6335909963 0.6838409901
0.0000000000 0.6430159807 0.7410889864
0.0000000000 0.6482989788 0.7827919722
0.0000000000 0.6516330242 0.8091390133
0.0000000000 0.6523290277 0.8239799738
0.0000000000 0.6533629894 0.8316040039
0.0000000000 0.6532009840 0.8367050290
0.0000000000 0.6533460021 0.8383880258
0.0000000000 0.6534190178 0.8394160271
0.0000000000 0.6534219980 0.8399170041
0.0281860009 0.0245370008 0.0306620002
0.0273419991 0.0265400000 0.0296950005
0.0265040006 0.0247040000 0.0409459993
0.0160169993 0.0154590001 0.0527479984
0.0130749997 0.0004080000 0.0985310003
0.0054500001 0.0000000000 0.1474950016
0.0000150000 0.0000000000 0.2143010050
0.0000000000 0.0000000000 0.2800930142
0.0000000000 0.0000000000 0.3411409855
0.0000000000 0.0000000000 0.3929069936
0.0000000000 0.0000000000 0.4342840016
0.0000000000 0.0000000000 0.4640730023
0.0000000000 0.0000000000 0.4830569923
0.0000000000 0.0000000000 0.4956440032
0.0000000000 0.0000000000 0.5031440258
0.0000000000 0.0000000000 0.5090010166
0.0000000000 0.0000000000 0.5136820078
0.0283840001 0.0304760002 0.0347829983
0.0290179998 0.0312380008 0.0314720012
0.0284439996 0.0309980009 0.0406850018
0.0275780000 0.0306030009 0.0513649993
0.0230420008 0.0282569993 0.0980120003
0.0091650002 0.0122880004 0.1467189938
0.0000000000 0.0000580000 0.2152550071
0.0000000000 0.0000000000 0.2838090062
0.0000000000 0.0000000000 0.3486320078
0.0000000000 0.0000000000 0.4039930105
0.0000000000 0.0000000000 0.4488750100
0.0000000000 0.0000000000 0.4816139936
0.0000000000 0.0000000000 0.5030710101
0.0000000000 0.0000000000 0.5178400278
0.0000000000 0.0000000000 0.5272949934
0.0000000000 0.0000000000 0.5347269773
0.0000000000 0.0000000000 0.5407930017
0.0271189995 0.0448310003 0.0384569988
0.0277890004 0.0454760008 0.0343099982
0.0269549992 0.0468039997 0.0430140011
0.0243040007 0.0492689982 0.0537069999
0.0029960000 0.0504610017 0.1022220030
0.0000000000 0.0431610011 0.1532530040
0.0000010000 0.0080390004 0.2205059975
0.0000000000 0.0000000000 0.2919720113
0.0000000000 0.0000000000 0.3607529998
0.0000000000 0.0000000000 0.4196960032
0.0000000000 0.0000000000 0.4678159952
0.0000000000 0.0000000000 0.5029349923
0.0000000000 0.0000000000 0.5259580016
0.0000000000 0.0000000000 0.5419200063
0.0000000000 0.0000000000 0.5522789955
0.0000000000 0.0000000000 0.5603489876
0.0000000000 0.0000000000 0.5669109821
0.0216770004 0.0607799999 0.0419920012
0.0222520009 0.0615510009 0.0390730016
0.0161930006 0.0633220002 0.0495719984
0.0026509999 0.0662849993 0.0613359995
0.0000280000 0.0689319968 0.1143440008
0.0000000000 0.0692460015 0.1719779968
0.0000000000 0.0518830009 0.2419490069
0.0000000000 0.0059719998 0.3121860027
0.0000000000 0.0000000000 0.3849110007
0.0000000000 0.0000000000 0.4472999871
0.0000000000 0.0000000000 0.4982700050
0.0000000000 0.0000000000 0.5349360108
0.0000000000 0.0000000000 0.5581079721
0.0000000000 0.0000000000 0.5736749768
0.0000000000 0.0000000000 0.5831869841
0.0000000000 0.0000000000 0.5903869867
0.0000000000 0.0000000000 0.5960450172
0.0000000000 0.0936110020 0.0468389988
0.0000000000 0.0957859978 0.0437790006
0.0000100000 0.0997179970 0.0573039986
0.0000000000 0.1056300029 0.0721869990
0.0000000000 0.1127670035 0.1307229996
0.0000000000 0.1186169982 0.1930969954
0.0000000000 0.1139490008 0.2710120082
0.0000000000 0.1015049964 0.3451249897
0.0000000000 0.0617519990 0.4101330042
0.0000000000 0.0000000000 0.4688900113
0.0000000000 0.0000000000 0.5220310092
0.0000000000 0.0000170000 0.5597689748
0.0000000000 0.0000000000 0.5830140114
0.0000000000 0.0000000000 0.5981910229
0.0000000000 0.0000000000 0.6069030166
0.0000000000 0.0000000000 0.6131500006
0.0000000000 0.0000000000 0.6177459955
0.0000000000 0.1303990036 0.0526710004
0.0000000000 0.1341069937 0.0475849994
0.0000000000 0.1398749948 0.0629929975
0.0000000000 0.1485929936 0.0825970024
0.0000000000 0.1601710021 0.1466169953
0.0000000000 0.1722609997 0.2159119993
0.0000000000 0.1769170016 0.3007000089
0.0000000000 0.1734389961 0.3794490099
0.0000000000 0.1698800027 0.4556449950
0.0000000000 0.1486620009 0.5140320063
0.0000000000 0.1264290065 0.5598149896
0.0000000000 0.1077350006 0.5925740004
0.0000000000 0.0970909968 0.6131740212
0.0000000000 0.0779860020 0.6249589920
0.0000000000 0.0771699995 0.6327300072
0.0000000000 0.0907690004 0.6397740245
0.0000000000 0.1037079990 0.6453809738
0.0000000000 0.1774110049 0.0479510017
0.0000000000 0.1840209961 0.0398369990
0.0000000000 0.1928869933 0.0616450012
0.0000000000 0.2053879946 0.0882719979
0.0000000000 0.2211229950 0.1597779989
0.0000000000 0.2386489958 0.2356110066
0.0000000000 0.2529889941 0.3278000057
0.0000000000 0.2605090141 0.4145820141
0.0000000000 0.2621490061 0.4941599965
0.0000000000 0.2621079981 0.5628139973
0.0000000000 0.2548500001 0.6118209958
0.0000000000 0.2484949976 0.6458590031
0.0000000000 0.2483759969 0.6688740253
0.0000000000 0.2464540005 0.6798970103
0.0000000000 0.2487699986 0.6885640025
0.0000000000 0.2502630055 0.6932399869
0.0000000000 0.2520120144 0.6961079836
0.0000000000 0.2275000066 0.0306030009
0.0000000000 0.2375209928 0.0000000000
0.0000000000 0.2497770041 0.0534599982
0.0000000000 0.2660369873 0.0912349969
0.0000000000 0.2867099941 0.1740610003
0.0000000000 0.3077160120 0.2549700141
0.0000000000 0.3255859911 0.3511149883
0.0000000000 0.3420369923 0.4454280138
0.0000000000 0.3491390049 0.5279380083
0.0000000000 0.3522999883 0.5976359844
0.0000000000 0.3546400070 0.6528620124
0.0000000000 0.3570640087 0.6920949817
0.0000000000 0.3515230119 0.7075210214
0.0000000000 0.3542160094 0.7228209972
0.0000000000 0.3619520068 0.7336580157
0.0000000000 0.3654730022 0.7387809753
0.0000000000 0.3659540117 0.7395570278
0.0000000000 0.2880469859 0.0000000000
0.0000000000 0.3046849966 0.0000000000
0.0000000000 0.3171670139 0.0129650002
0.0000000000 0.3382599950 0.0920670033
0.0000000000 0.3622899950 0.1880359948
0.0000000000 0.3886300027 0.2804920077
0.0000000000 0.4113430083 0.3809610009
0.0000000000 0.4295350015 0.4762589931
0.0000000000 0.4420189857 0.5614029765
0.0000000000 0.4504910111 0.6332799792
0.0000000000 0.4573589861 0.6897659898
0.0000000000 0.4603730142 0.7270789742
0.0000000000 0.4619700015 0.7487519979
0.0000000000 0.4643520117 0.7645679712
0.0000000000 0.4624910057 0.7679960132
0.0000000000 0.4633780122 0.7714610100
0.0000000000 0.4672839940 0.7753379941
0.0000000000 0.3432939947 0.0000000000
0.0000000000 0.3634229898 0.0000000000
0.0000000000 0.3778530061 0.0000000000
0.0000000000 0.4001139998 0.0977139995
0.0000000000 0.4267570078 0.2048269957
0.0000000000 0.4543510079 0.3035640121
0.0000000000 0.4784390032 0.4064539969
0.0000000000 0.4995630085 0.5040360093
0.0000000000 0.5181589723 0.5944380164
0.0000000000 0.5295879841 0.6689190269
0.0000000000 0.5356709957 0.7206389904
0.0000000000 0.5427190065 0.7603150010
0.0000000000 0.5406000018 0.7787650228
0.0000000000 0.5428739786 0.7909899950
0.0000000000 0.5460720062 0.8000580072
0.0000000000 0.5474050045 0.8039349914
0.0000000000 0.5484499931 0.8060330153
0.0000000000 0.3897199929 0.0000000000
0.0000000000 0.4115909934 0.0000000000
0.0000000000 0.4261089861 0.0000000000
0.0000000000 0.4471279979 0.1085119992
0.0000000000 0.4747669995 0.2229579985
0.0000000000 0.5028759837 0.3262810111
0.0000000000 0.5282049775 0.4317350090
0.0000000000 0.5487939715 0.5304179788
0.0000000000 0.5650839806 0.6176800132
0.0000000000 0.5763840079 0.6881430149
0.0000000000 0.5841730237 0.7412999868
0.0000000000 0.5880249739 0.7776449919
0.0000000000 0.5889499784 0.7947379947
0.0000000000 0.5912299752 0.8067150116
0.0000000000 0.5918710232 0.8117430210
0.0000000000 0.5922909975 0.8148099780
0.0000000000 0.5946959853 0.8177009821
0.0000000000 0.4244199991 0.0000000000
0.0000000000 0.4460960031 0.0000000000
0.0000000000 0.4590190053 0.0000000000
0.0000000000 0.4812029898 0.1312389970
0.0000000000 0.5090119839 0.2469310015
0.0000000000 0.5363510251 0.3519720137
0.0000000000 0.5608609915 0.4574559927
0.0000000000 0.5811340213 0.5544049740
0.0000000000 0.5962269902 0.6401439905
0.0000000000 0.6061879992 0.7076479793
0.0000000000 0.6125419736 0.7575070262
0.0000000000 0.6179749966 0.7885410190
0.0000000000 0.6189349890 0.8066859841
0.0000000000 0.6208909750 0.8173130155
0.0000000000 0.6228280067 0.8239780068
0.0000000000 0.6240829825 0.8276309967
0.0000000000 0.6244969964 0.8292109966
0.0000000000 0.4484049976 0.0000000000
0.0000000000 0.4678519964 0.0000000000
0.0000000000 0.4778000116 0.0020430000
0.0000000000 0.5036150217 0.1623930037
0.0000000000 0.5305219889 0.2752029896
0.0000000000 0.5564370155 0.3813790083
0.0000000000 0.5790179968 0.4850730002
0.0000000000 0.5978980064 0.5812199712
0.0000000000 0.6126480103 0.6631559730
0.0000000000 0.6235100031 0.7277129889
0.0000000000 0.6283050179 0.7722830176
0.0000000000 0.6307370067 0.7994639874
0.0000000000 0.6312010288 0.8142660260
0.0000000000 0.6339799762 0.8252019882
0.0000000000 0.6336039901 0.8281469941
0.0000000000 0.6325340271 0.8290169835
0.0000000000 0.6321629882 0.8296930194
0.0000000000 0.4653050005 0.0000000000
0.0000000000 0.4833849967 0.0000000000
0.0000000000 0.4947820008 0.0730540007
0.0000000000 0.5214909911 0.1971330047
0.0000000000 0.5473210216 0.3064689934
0.0000000000 0.5711950064 0.4112249911
0.0000000000 0.5923519731 0.5125420094
0.0000000000 0.6092579961 0.6039850116
0.0000000000 0.6232569814 0.6810730100
0.0000000000 0.6306030154 0.7396609783
0.0000000000 0.6346930265 0.7807790041
0.0000000000 0.6400039792 0.8080260158
0.0000000000 0.6413180232 0.8194839954
0.0000000000 0.6387370229 0.8260620236
0.0000000000 0.6397820115 0.8302189708
0.0000000000 0.6400330067 0.8322929740
0.0000000000 0.6396600008 0.8328800201
0.0000000000 0.4780730009 0.0000000000
0.0000000000 0.4944010079 0.0000000000
0.0000000000 0.5110440254 0.1223670021
0.0000000000 0.5373860002 0.2363779992
0.0000000000 0.5618090034 0.3422020078
0.0000000000 0.5836030245 0.4438309968
0.0000000000 0.6028659940 0.5395630002
0.0000000000 0.6211079955 0.6286519766
0.0000000000 0.6301640272 0.6985080242
0.0000000000 0.6398400068 0.7554630041
0.0000000000 0.6432319880 0.7914670110
0.0000000000 0.6466599703 0.8141499758
0.0000000000 0.6456890106 0.8231040239
0.0000000000 0.6467419863 0.8317409754
0.0000000000 0.6473870277 0.8349570036
0.0000000000 0.6475070119 0.8366400003
0.0000000000 0.6472920179 0.8372560143
0.0000000000 0.4996280074 0.0000000000
0.0000000000 0.5133129954 0.0776060000
0.0000000000 0.5415340066 0.2067530006
0.0000000000 0.5653390288 0.3033789992
0.0000000000 0.5868790150 0.3992750049
0.0000000000 0.6061419845 0.4931089878
0.0000000000 0.6240079999 0.5805310011
0.0000000000 0.6376219988 0.6586920023
0.0000000000 0.6471959949 0.7232829928
0.0000000000 0.6529830098 0.7721379995
0.0000000000 0.6567019820 0.8052650094
0.0000000000 0.6577789783 0.8232579827
0.0000000000 0.6600469947 0.8334010243
0.0000000000 0.6599760056 0.8395249844
0.0000000000 0.6598110199 0.8417519927
0.0000000000 0.6592190266 0.8434529901
0.0000000000 0.6591410041 0.8439180255
0.0000000000 0.5240780115 0.0000000000
0.0000000000 0.5455350280 0.1684830040
0.0000000000 0.5759630203 0.2726689875
0.0000000000 0.5969560146 0.3667919934
0.0000000000 0.6154350042 0.4570879936
0.0000000000 0.6312919855 0.5417069793
0.0000000000 0.6471459866 0.6231489778
0.0000000000 0.6585639715 0.6947010159
0.0000000000 0.6654769778 0.7496989965
0.0000000000 0.6723129749 0.7933459878
0.0000000000 0.6744899750 0.8207889795
0.0000000000 0.6755499840 0.8364210129
0.0000000000 0.6752309799 0.8424929976
0.0000000000 0.6750649810 0.8464589715
0.0000000000 0.6758329868 0.8495169878
0.0000000000 0.6759349704 0.8505250216
0.0000000000 0.6761059761 0.8510180116
0.0296570007 0.0262330007 0.0313629992
0.0286410004 0.0281039998 0.0310149994
0.0281070005 0.0266479999 0.0411919989
0.0220979992 0.0112399999 0.0515919998
0.0191280004 0.0000000000 0.0956939980
0.0201900005 0.0000000000 0.1426360011
0.0000000000 0.0000000000 0.2081580013
0.0000000000 0.0000000000 0.2748059928
0.0000000000 0.0000000000 0.3370229900
0.0000000000 0.0000000000 0.3900209963
0.0000000000 0.0000000000 0.4328269958
0.0000000000 0.0000000000 0.4637280107
0.0000000000 0.0000000000 0.4835259914
0.0000000000 0.0000000000 0.4968090057
0.0000000000 0.0000000000 0.5049129725
0.0000000000 0.0000000000 0.5111600161
0.0000000000 0.0000000000 0.5161200166
0.0303259995 0.0307679996 0.0355109982
0.0320370011 0.0315809995 0.0329389982
0.0312290005 0.0315669999 0.0411499999
0.0301389992 0.0306839999 0.0499430001
0.0285490006 0.0288559999 0.0947630033
0.0246840008 0.0165630002 0.1421619952
0.0002250000 0.0000000000 0.2082280070
0.0000000000 0.0000000000 0.2769460082
0.0000000000 0.0000000000 0.3431079984
0.0000000000 0.0000000000 0.3999620080
0.0000000000 0.0000000000 0.4465590119
0.0000000000 0.0000000000 0.4806050062
0.0000000000 0.0000000000 0.5029850006
0.0000000000 0.0000000000 0.5186880231
0.0000000000 0.0000000000 0.5290529728
0.0000000000 0.0000000000 0.5368199944
0.0000000000 0.0000000000 0.5429509878
