src/assets/luts/Rec709%20Fujifilm%203513DI%20D60_17.cube
TITLE "Rec709 Fujifilm 3513DI D60 (17 point)"
LUT_3D_SIZE 5
DOMAIN_MIN 0.0 0.0 0.0
DOMAIN_MAX 1.0 1.0 1.0
0.0287459996 0.0230579991 0.0298330002
0.0215319991 0.0154740000 0.1036500037
0.0000000000 0.0000000000 0.3501749933
0.0000000000 0.0000000000 0.4870440066
0.0000000000 0.0000000000 0.5146139860
0.0000000000 0.0975119993 0.0461080000
0.0000000000 0.1190460026 0.1406019926
0.0000000000 0.0701460019 0.4226349890
0.0000000000 0.0000000000 0.5865749717
0.0000000000 0.0000000000 0.6192560196
0.0000000000 0.2947109938 0.0000000000
0.0000000000 0.3694989979 0.1949280053
0.0000000000 0.4505229890 0.5698000193
0.0000000000 0.4735350013 0.7543460131
0.0000000000 0.4769259989 0.7781969905
0.0000000000 0.4469999969 0.0000000000
0.0000000000 0.5297489762 0.2845939994
0.0000000000 0.6105120182 0.6652699709
0.0000000000 0.6279640198 0.8105000257
0.0000000000 0.6323119998 0.8282170296
0.0000000000 0.5003550053 0.0000000000
0.0000000000 0.5912190080 0.4503499866
0.0000000000 0.6430159807 0.7410889864
0.0000000000 0.6533629894 0.8316040039
0.0000000000 0.6534219980 0.8399170041
0.0562850013 0.0313550010 0.0316790007
0.0651490018 0.0292850006 0.1001230031
0.0318990014 0.0000000000 0.3471199870
0.0000000000 0.0000000000 0.5019419789
0.0000000000 0.0000000000 0.5352569818
0.0754230022 0.1031839997 0.0458160006
0.0741880015 0.1237310022 0.1272480041
0.0000000000 0.1232339963 0.4258019924
0.0000510000 0.0349470004 0.6006199718
0.0000000000 0.0320900008 0.6398869753
0.0000000000 0.3171389997 0.0000000000
0.0000000000 0.3935140073 0.1747370064
0.0000000000 0.4766719937 0.5730630159
0.0000000000 0.4988319874 0.7745370269
0.0000000000 0.5031719804 0.8030449748
0.0000000000 0.5150640011 0.0000000000
0.0000000000 0.5962700248 0.2603810132
0.0000000000 0.6801099777 0.6767619848
0.0000000000 0.7007049918 0.8440560102
0.0000000000 0.6998680234 0.8604500294
0.0000000000 0.6245260239 0.0000000000
0.0000000000 0.7009440064 0.4521549940
0.0000000000 0.7539380193 0.7678089738
0.0000000000 0.7625210285 0.8671870232
0.0000000000 0.7613469958 0.8769109845
0.3176310062 0.0000000000 0.0000000000
0.3675729930 0.0000000000 0.1030599996
0.4015029967 0.0000000000 0.3846989870
0.4115270078 0.0000000000 0.5575699806
0.4101760089 0.0000000000 0.5966039896
0.4088790119 0.1481969953 0.0000000000
0.4570789933 0.1481650025 0.1025120020
0.4720509946 0.1490709931 0.4474959970
0.4723060131 0.0929590017 0.6560549736
0.4692859948 0.1267469972 0.7056450248
0.5231950283 0.4345499873 0.0000000000
0.5733649731 0.4917140007 0.0377260000
0.5498840213 0.5667799711 0.5637300014
0.5193539858 0.5972710252 0.7949579954
0.5015310049 0.6075569987 0.8343899846
0.6009290218 0.6936370134 0.0000000000
0.6201819777 0.7496209741 0.1010240018
0.5534939766 0.8295469880 0.6634439826
0.5015519857 0.8579390049 0.8643100262
0.4794239998 0.8601310253 0.8893359900
0.6817939878 0.7866020203 0.0000000000
0.6301209927 0.8203080297 0.4067780077
0.5720139742 0.8730430007 0.7642660141
0.5351449847 0.8877919912 0.8857510090
0.5163050294 0.8875960112 0.8974220157
0.5725110173 0.0000000000 0.0000000000
0.6340299845 0.0000000000 0.1103520021
0.6653460264 0.0000000000 0.4127799869
0.6885060072 0.0000000000 0.5983890295
0.6969929934 0.0000000000 0.6430799961
0.6774560213 0.1337379962 0.0000000000
0.7241539955 0.0398299992 0.0241439994
0.7407209873 0.0000000000 0.4498260021
0.7627750039 0.0000000000 0.6838330030
0.7665969729 0.0000000000 0.7365630269
0.8285840154 0.4659439921 0.0000000000
0.8897920251 0.5161650181 0.0000000000
0.8762869835 0.5745880008 0.5611680150
0.8771160245 0.6135020256 0.8213829994
0.8764290214 0.6293439865 0.8703579903
0.9525480270 0.7665910125 0.0000000000
0.9865409732 0.8185099959 0.0000000000
0.9465150237 0.8877210021 0.6618189812
0.9360299706 0.9302999973 0.8993219733
0.9309459925 0.9367669821 0.9321429729
1.0000000000 0.8628439903 0.0000000000
0.9677349925 0.8774830103 0.3771249950
0.9444490075 0.9403780103 0.7774069905
0.9356700182 0.9646589756 0.9229300022
0.9308750033 0.9666770101 0.9377490282
0.6551740170 0.0000000000 0.0000000000
0.7070519924 0.0000000000 0.1477620006
0.7319920063 0.0000000000 0.4518330097
0.7590810061 0.0000000000 0.6269680262
0.7692310214 0.0000000000 0.6662740111
0.7563800216 0.1539539993 0.0000000000
0.7858080268 0.0590090007 0.0856119990
0.7966729999 0.0601410009 0.4972209930
0.8145340085 0.0000000000 0.7074469924
0.8207399845 0.0610900000 0.7520610094
0.9074079990 0.4977880120 0.0000000000
0.9374330044 0.5303360224 0.0000000000
0.9298220277 0.6032140255 0.6063719988
0.9340739846 0.6398050189 0.8426910043
0.9369660020 0.6550980210 0.8832520247
1.0000000000 0.7819420099 0.0000000000
1.0000000000 0.8128060102 0.0000000000
1.0000000000 0.9032899737 0.6976540089
0.9963560104 0.9426119924 0.9119610190
0.9955139756 0.9485369921 0.9400699735
1.0000000000 0.8585960269 0.0000000000
1.0000000000 0.8856260180 0.4178180099
1.0000000000 0.9536179900 0.8021500111
1.0000000000 0.9768459797 0.9325389862
0.9999740124 0.9793170094 0.9458929896
